;FLAVOR:Marlin
;TIME:5999
;Filament used: 5.46028m
;Layer height: 0.15
;MINX:74.732
;MINY:72.232
;MINZ:0.2
;MAXX:175.268
;MAXY:182.768
;MAXZ:6.05
;Generated with Cura_SteamEngine 5.0.0
M140 S70
M105
M190 S70
M104 S210
M105
M109 S210
M82 ;absolute extrusion mode
G21 ;metric values
G90 ;absolute positioning
M82 ;set extruder to absolute mode
M107 ;start with the fan off
G28 X0 Y0 ;move X/Y to min endstops
M300 S1318 P266
G28 Z0 ;move Z to min endstops
G0 Z0.2
G92 E0 ;zero the extruded length
G1 X40 E25 F400 ; Extrude 25mm of filament in a 4cm line. Reduce speed (F) if you have a nozzle smaller than 0.4mm!
G92 E0 ;zero the extruded length again
G1 E-1 F500 ; Retract a little
G1 X80 F4000 ; Quickly wipe away from the filament line
M117 ; Printing…
G5
G92 E0
G92 E0
G1 F1500 E-6.5
;LAYER_COUNT:40
;LAYER:0
M107
G0 F3600 X76.605 Y75.445 Z0.2
G0 X74.733 Y80.132
;TYPE:SKIRT
G1 F1500 E0
G1 F1800 X74.743 Y79.43 E0.02942
G1 X74.792 Y78.783 E0.05661
G1 X74.92 Y78.147 E0.0838
G1 X75.126 Y77.531 E0.11102
G1 X75.405 Y76.946 E0.13818
G1 X75.755 Y76.399 E0.1654
G1 X76.201 Y75.866 E0.19452
G1 X76.605 Y75.445 E0.21898
G1 X77.852 Y74.198 E0.29288
G1 X78.338 Y73.727 E0.32124
G1 X78.831 Y73.305 E0.34844
G1 X79.372 Y72.947 E0.37563
G1 X79.953 Y72.658 E0.40282
G1 X80.565 Y72.442 E0.43002
G1 X81.199 Y72.304 E0.45721
G1 X81.91 Y72.243 E0.48712
G1 X82.562 Y72.232 E0.51444
G1 X167.293 Y72.232 E4.06533
G1 X168.069 Y72.243 E4.09786
G1 X168.716 Y72.292 E4.12505
G1 X169.352 Y72.42 E4.15224
G1 X169.968 Y72.626 E4.17946
G1 X170.553 Y72.905 E4.20662
G1 X171.1 Y73.255 E4.23383
G1 X171.621 Y73.69 E4.26228
G1 X172.036 Y74.086 E4.28631
G1 X173.306 Y75.357 E4.36161
G1 X173.777 Y75.844 E4.39001
G1 X174.198 Y76.337 E4.41717
G1 X174.556 Y76.878 E4.44436
G1 X174.844 Y77.46 E4.47157
G1 X175.059 Y78.072 E4.49876
G1 X175.197 Y78.706 E4.52595
G1 X175.257 Y79.411 E4.5556
G1 X175.268 Y80.063 E4.58293
G1 X175.267 Y174.868 E8.556
G1 X175.257 Y175.57 E8.58542
G1 X175.208 Y176.217 E8.61261
G1 X175.08 Y176.853 E8.6398
G1 X174.874 Y177.469 E8.66702
G1 X174.595 Y178.054 E8.69418
G1 X174.245 Y178.601 E8.72139
G1 X173.799 Y179.134 E8.75052
G1 X173.393 Y179.557 E8.77509
G1 X172.156 Y180.793 E8.84837
G1 X171.662 Y181.272 E8.87721
G1 X171.169 Y181.694 E8.90441
G1 X170.628 Y182.053 E8.93162
G1 X170.048 Y182.342 E8.95877
G1 X169.436 Y182.557 E8.98596
G1 X168.802 Y182.696 E9.01316
G1 X168.09 Y182.757 E9.04311
G1 X167.438 Y182.768 E9.07043
G1 X82.632 Y182.767 E12.62446
G1 X81.931 Y182.757 E12.65384
G1 X81.284 Y182.708 E12.68104
G1 X80.648 Y182.58 E12.70822
G1 X80.032 Y182.374 E12.73544
G1 X79.447 Y182.095 E12.76261
G1 X78.9 Y181.745 E12.78982
G1 X78.37 Y181.302 E12.81877
G1 X77.933 Y180.883 E12.84414
G1 X76.698 Y179.647 E12.91736
G1 X76.227 Y179.161 E12.94573
G1 X75.805 Y178.668 E12.97292
G1 X75.447 Y178.127 E13.00011
G1 X75.158 Y177.546 E13.0273
G1 X74.942 Y176.934 E13.0545
G1 X74.804 Y176.3 E13.08169
G1 X74.743 Y175.59 E13.11156
G1 X74.732 Y174.938 E13.13888
G1 X74.733 Y80.132 E17.11199
G0 F3600 X75.236 Y80.139
G1 F1800 X75.246 Y79.437 E17.14141
G1 X75.295 Y78.822 E17.16727
G1 X75.423 Y78.218 E17.19314
G1 X75.628 Y77.636 E17.219
G1 X75.906 Y77.086 E17.24483
G1 X76.253 Y76.576 E17.27068
G1 X76.888 Y75.877 E17.31026
G1 X78.203 Y74.56 E17.38825
G1 X78.689 Y74.089 E17.41661
G1 X79.159 Y73.689 E17.44248
G1 X79.676 Y73.353 E17.46832
G1 X80.233 Y73.087 E17.49419
G1 X80.819 Y72.896 E17.52002
G1 X81.426 Y72.781 E17.54591
G1 X82.477 Y72.737 E17.58999
G1 X167.361 Y72.736 E21.14729
G1 X168.062 Y72.746 E21.17667
G1 X168.677 Y72.795 E21.20252
G1 X169.281 Y72.923 E21.2284
G1 X169.863 Y73.128 E21.25426
G1 X170.413 Y73.406 E21.28008
G1 X170.924 Y73.753 E21.30597
G1 X171.591 Y74.356 E21.34365
G1 X172.943 Y75.707 E21.42375
G1 X173.414 Y76.194 E21.45214
G1 X173.814 Y76.664 E21.47801
G1 X174.149 Y77.182 E21.50386
G1 X174.414 Y77.74 E21.52975
G1 X174.606 Y78.326 E21.55559
G1 X174.719 Y78.933 E21.58147
G1 X174.763 Y79.977 E21.62526
G1 X174.764 Y174.861 E25.60163
G1 X174.754 Y175.563 E25.63105
G1 X174.705 Y176.178 E25.65691
G1 X174.577 Y176.782 E25.68278
G1 X174.372 Y177.364 E25.70864
G1 X174.094 Y177.914 E25.73447
G1 X173.747 Y178.424 E25.76032
G1 X173.112 Y179.123 E25.7999
G1 X171.805 Y180.431 E25.87739
G1 X171.311 Y180.91 E25.90622
G1 X170.841 Y181.31 E25.93209
G1 X170.324 Y181.646 E25.95793
G1 X169.767 Y181.912 E25.9838
G1 X169.181 Y182.104 E26.00964
G1 X168.574 Y182.219 E26.03553
G1 X167.524 Y182.263 E26.07957
G1 X82.639 Y182.264 E29.63691
G1 X81.938 Y182.254 E29.66629
G1 X81.323 Y182.205 E29.69215
G1 X80.719 Y182.077 E29.71802
G1 X80.137 Y181.872 E29.74388
G1 X79.587 Y181.594 E29.76971
G1 X79.076 Y181.247 E29.79559
G1 X78.37 Y180.605 E29.83558
G1 X77.06 Y179.296 E29.91319
G1 X76.589 Y178.81 E29.94156
G1 X76.189 Y178.34 E29.96742
G1 X75.853 Y177.823 E29.99326
G1 X75.587 Y177.266 E30.01913
G1 X75.396 Y176.68 E30.04496
G1 X75.281 Y176.073 E30.07085
G1 X75.237 Y175.024 E30.11485
G1 X75.236 Y80.139 E34.09127
G0 F3600 X75.74 Y80.146
G1 F1800 X75.75 Y79.444 E34.12069
G1 X75.799 Y78.863 E34.14512
G1 X75.926 Y78.293 E34.1696
G1 X76.13 Y77.747 E34.19402
G1 X76.406 Y77.233 E34.21847
G1 X76.93 Y76.562 E34.25415
G1 X77.318 Y76.157 E34.27766
G1 X78.553 Y74.922 E34.35085
G1 X79.039 Y74.451 E34.37921
G1 X79.485 Y74.074 E34.40369
G1 X79.978 Y73.763 E34.42811
G1 X80.509 Y73.521 E34.45257
G1 X81.068 Y73.354 E34.47702
G1 X81.928 Y73.251 E34.51332
G1 X82.562 Y73.24 E34.53989
G1 X167.354 Y73.24 E38.09333
G1 X168.055 Y73.25 E38.12272
G1 X168.636 Y73.299 E38.14715
G1 X169.206 Y73.426 E38.17162
G1 X169.752 Y73.63 E38.19605
G1 X170.266 Y73.906 E38.2205
G1 X170.927 Y74.421 E38.25562
G1 X171.323 Y74.799 E38.27856
G1 X172.581 Y76.057 E38.35312
G1 X173.052 Y76.544 E38.38151
G1 X173.428 Y76.991 E38.40599
G1 X173.74 Y77.484 E38.43044
G1 X173.981 Y78.015 E38.45487
G1 X174.147 Y78.575 E38.47935
G1 X174.249 Y79.43 E38.51544
G1 X174.26 Y80.063 E38.54197
G1 X174.26 Y174.854 E42.51445
G1 X174.25 Y175.556 E42.54387
G1 X174.201 Y176.137 E42.56831
G1 X174.074 Y176.707 E42.59278
G1 X173.87 Y177.253 E42.61721
G1 X173.594 Y177.767 E42.64166
G1 X173.07 Y178.438 E42.67733
G1 X172.68 Y178.844 E42.70093
G1 X171.454 Y180.069 E42.77356
G1 X170.96 Y180.548 E42.80239
G1 X170.515 Y180.925 E42.82684
G1 X170.022 Y181.237 E42.85129
G1 X169.491 Y181.479 E42.87574
G1 X168.932 Y181.646 E42.90019
G1 X168.071 Y181.749 E42.93653
G1 X167.438 Y181.76 E42.96306
G1 X82.646 Y181.76 E46.51651
G1 X81.945 Y181.75 E46.54589
G1 X81.364 Y181.701 E46.57032
G1 X80.794 Y181.574 E46.59479
G1 X80.248 Y181.37 E46.61922
G1 X79.734 Y181.094 E46.64367
G1 X79.065 Y180.572 E46.67923
G1 X78.646 Y180.17 E46.70357
G1 X77.422 Y178.946 E46.77611
G1 X76.951 Y178.46 E46.80447
G1 X76.574 Y178.014 E46.82894
G1 X76.263 Y177.521 E46.85337
G1 X76.021 Y176.99 E46.87783
G1 X75.854 Y176.431 E46.90228
G1 X75.751 Y175.571 E46.93858
G1 X75.74 Y174.938 E46.96511
G1 X75.74 Y80.146 E50.93763
G0 F3600 X76.244 Y80.154
G1 F1800 X76.254 Y79.452 E50.96705
G1 X76.302 Y78.906 E50.99002
G1 X76.429 Y78.373 E51.01298
G1 X76.631 Y77.864 E51.03593
G1 X76.906 Y77.39 E51.0589
G1 X77.294 Y76.91 E51.08476
G1 X77.675 Y76.513 E51.10782
G1 X78.904 Y75.284 E51.18066
G1 X79.39 Y74.813 E51.20902
G1 X79.81 Y74.461 E51.23199
G1 X80.277 Y74.175 E51.25494
G1 X80.78 Y73.959 E51.27788
G1 X81.31 Y73.819 E51.30085
G1 X81.937 Y73.755 E51.32727
G1 X82.562 Y73.744 E51.35346
G1 X167.347 Y73.744 E54.90661
G1 X168.048 Y73.754 E54.93599
G1 X168.593 Y73.802 E54.95892
G1 X169.126 Y73.929 E54.98188
G1 X169.635 Y74.132 E55.00485
G1 X170.109 Y74.406 E55.02779
G1 X170.58 Y74.786 E55.05315
G1 X170.967 Y75.155 E55.07556
G1 X172.219 Y76.408 E55.14979
G1 X172.69 Y76.895 E55.17819
G1 X173.041 Y77.315 E55.20113
G1 X173.327 Y77.782 E55.22407
G1 X173.542 Y78.286 E55.24704
G1 X173.682 Y78.816 E55.27001
G1 X173.745 Y79.439 E55.29625
G1 X173.756 Y80.063 E55.32241
G1 X173.756 Y174.846 E59.29455
G1 X173.746 Y175.548 E59.32397
G1 X173.698 Y176.094 E59.34694
G1 X173.571 Y176.627 E59.36991
G1 X173.369 Y177.136 E59.39285
G1 X173.094 Y177.61 E59.41582
G1 X172.706 Y178.09 E59.44169
G1 X172.324 Y178.488 E59.4648
G1 X171.104 Y179.708 E59.53711
G1 X170.61 Y180.187 E59.56595
G1 X170.19 Y180.538 E59.58889
G1 X169.723 Y180.825 E59.61186
G1 X169.219 Y181.041 E59.63484
G1 X168.69 Y181.181 E59.65777
G1 X168.062 Y181.245 E59.68422
G1 X167.438 Y181.256 E59.71038
G1 X82.653 Y181.256 E63.26353
G1 X81.952 Y181.246 E63.29291
G1 X81.407 Y181.198 E63.31584
G1 X80.874 Y181.071 E63.3388
G1 X80.365 Y180.868 E63.36176
G1 X79.891 Y180.594 E63.38471
G1 X79.413 Y180.208 E63.41046
G1 X79.002 Y179.814 E63.43432
G1 X77.784 Y178.595 E63.50653
G1 X77.313 Y178.109 E63.53489
G1 X76.961 Y177.689 E63.55786
G1 X76.675 Y177.222 E63.58081
G1 X76.459 Y176.719 E63.60375
G1 X76.319 Y176.189 E63.62672
G1 X76.255 Y175.562 E63.65314
G1 X76.244 Y174.938 E63.67929
G1 X76.244 Y80.154 E67.65148
G0 F3600 X76.748 Y80.161
G1 F1800 X76.758 Y79.459 E67.6809
G1 X76.806 Y78.951 E67.70228
G1 X76.931 Y78.457 E67.72364
G1 X77.133 Y77.989 E67.745
G1 X77.405 Y77.558 E67.76636
G1 X77.981 Y76.921 E67.80235
G1 X79.255 Y75.646 E67.87788
G1 X79.741 Y75.175 E67.90625
G1 X80.133 Y74.85 E67.92759
G1 X80.572 Y74.59 E67.94897
G1 X81.046 Y74.402 E67.97034
G1 X81.543 Y74.291 E67.99168
G1 X82.504 Y74.249 E68.03199
G1 X167.339 Y74.248 E71.58724
G1 X168.04 Y74.258 E71.61662
G1 X168.548 Y74.306 E71.638
G1 X169.042 Y74.431 E71.65936
G1 X169.51 Y74.633 E71.68072
G1 X169.941 Y74.905 E71.70208
G1 X170.55 Y75.453 E71.73641
G1 X171.857 Y76.758 E71.81381
G1 X172.328 Y77.245 E71.8422
G1 X172.652 Y77.638 E71.86355
G1 X172.911 Y78.077 E71.88491
G1 X173.099 Y78.551 E71.90628
G1 X173.21 Y79.048 E71.92762
G1 X173.251 Y80.005 E71.96776
G1 X173.252 Y174.839 E75.94204
G1 X173.242 Y175.541 E75.97147
G1 X173.194 Y176.049 E75.99285
G1 X173.069 Y176.543 E76.01421
G1 X172.867 Y177.011 E76.03557
G1 X172.595 Y177.442 E76.05693
G1 X172.019 Y178.079 E76.09292
G1 X170.753 Y179.346 E76.16798
G1 X170.259 Y179.825 E76.19681
G1 X169.866 Y180.15 E76.21819
G1 X169.428 Y180.409 E76.23951
G1 X168.954 Y180.597 E76.26088
G1 X168.457 Y180.709 E76.28223
G1 X167.496 Y180.751 E76.32254
G1 X82.661 Y180.752 E79.87779
G1 X81.96 Y180.742 E79.90717
G1 X81.452 Y180.694 E79.92855
G1 X80.958 Y180.569 E79.94991
G1 X80.49 Y180.367 E79.97127
G1 X80.059 Y180.095 E79.99263
G1 X79.413 Y179.511 E80.02912
G1 X78.146 Y178.244 E80.10421
G1 X77.675 Y177.758 E80.13258
G1 X77.35 Y177.366 E80.15392
G1 X77.09 Y176.927 E80.1753
G1 X76.902 Y176.453 E80.19667
G1 X76.791 Y175.956 E80.21801
G1 X76.749 Y174.996 E80.25828
G1 X76.748 Y80.161 E84.2326
G1 F1500 E77.7326
;MESH:orient-beetle-v2-front.stl
G0 F3600 X79.335 Y80.161
G0 X80.45 Y80.161
G1 F1500 E84.2326
G0 F3600 X80.252 Y79.606
;TYPE:WALL-OUTER
G1 F1800 X80.252 Y175.394 E88.24686
G1 X82.106 Y177.248 E88.35674
G1 X167.894 Y177.248 E91.95193
G1 X169.748 Y175.394 E92.06181
G1 X169.748 Y80.916 E96.02117
G1 X169.748 Y79.606 E96.07607
G1 X167.894 Y77.752 E96.18595
G1 X82.106 Y77.752 E99.78113
G1 X80.252 Y79.606 E99.89101
G0 F3600 X80.252 Y79.806
G0 X80.756 Y79.815
;TYPE:WALL-INNER
G1 F1800 X80.756 Y175.185 E103.88776
G1 X82.315 Y176.744 E103.98015
G1 X167.685 Y176.744 E107.55782
G1 X169.244 Y175.185 E107.65022
G1 X169.244 Y80.916 E111.60082
G1 X169.244 Y79.815 E111.64696
G1 X167.685 Y78.256 E111.73936
G1 X82.315 Y78.256 E115.31702
G1 X80.756 Y79.815 E115.40942
G0 F3600 X81.26 Y80.023
G1 F1800 X81.26 Y174.977 E119.38873
G1 X82.523 Y176.24 E119.46358
G1 X167.477 Y176.24 E123.02382
G1 X168.74 Y174.977 E123.09867
G1 X168.74 Y80.916 E127.04056
G1 X168.74 Y80.023 E127.07798
G1 X167.477 Y78.76 E127.15283
G1 X82.523 Y78.76 E130.71307
G1 X81.26 Y80.023 E130.78792
G0 F3600 X93.36 Y94.13
G0 X93.78 Y94.373
;TYPE:WALL-OUTER
G1 F1800 X96.782 Y89.177 E131.0394
G1 X96.907 Y89.069 E131.04633
G1 X97.001 Y89.052 E131.05033
G1 X102.999 Y89.052 E131.30169
G1 X103.168 Y89.116 E131.30927
G1 X103.218 Y89.177 E131.31257
G1 X106.22 Y94.373 E131.56405
G1 F1575 X106.282 Y94.663 E131.57826
G1 F1415.3 X106.178 Y94.828 E131.58865
G1 F1433.2 X103.274 Y99.855 E131.89422
G1 F1497 X103.195 Y99.91 E131.89907
G1 F1676.9 X102.999 Y99.948 E131.90805
G1 F1800 X96.979 Y99.948 E132.16034
G1 F1586 X96.756 Y99.902 E132.17117
G1 F1424.2 X96.726 Y99.856 E132.17408
G1 F1430.9 X93.822 Y94.828 E132.48017
G1 F1415.3 X93.718 Y94.663 E132.49057
G1 F1575 X93.78 Y94.373 E132.50477
G0 F3600 X93.88 Y94.2
G0 X93.46 Y93.956
G0 X96.733 Y100.16
G0 X103.27 Y100.385
G0 X103.822 Y100.172
G1 F1433.2 X106.726 Y95.145 E132.81034
G1 F1415.3 X106.782 Y95.064 E132.81559
G1 F1575 X107.394 Y95.052 E132.84491
G1 F1800 X113.03 Y95.053 E133.0811
G1 X113.182 Y95.129 E133.08822
G1 X113.658 Y95.94 E133.12763
G1 X116.22 Y100.373 E133.3422
G1 X116.25 Y100.544 E133.34948
G1 X116.22 Y100.627 E133.35317
G1 X113.218 Y105.823 E133.60466
G1 X113.164 Y105.887 E133.60817
G1 X112.999 Y105.948 E133.61554
G1 X106.979 Y105.948 E133.86782
G1 F1586 X106.756 Y105.902 E133.87865
G1 F1424.2 X106.726 Y105.856 E133.88156
G1 F1430.9 X103.822 Y100.828 E134.18766
G1 F1415.3 X103.718 Y100.663 E134.19805
G1 F1410.9 X103.765 Y100.267 E134.21938
G1 F1428.7 X103.822 Y100.172 E134.22522
G0 F3600 X103.922 Y99.999
G0 X103.27 Y100.385
G0 X96.733 Y100.84
G0 X93.27 Y106.385
G0 X93.822 Y106.172
G1 F1433.2 X96.726 Y101.145 E134.53079
G1 F1415.3 X96.782 Y101.064 E134.53604
G1 F1575 X97.001 Y101.052 E134.54655
G1 F1800 X102.999 Y101.052 E134.79791
G1 F1575 X103.218 Y101.064 E134.80841
G1 F1415.3 X103.274 Y101.145 E134.81366
G1 F1430.9 X106.178 Y106.173 E135.11976
G1 F1492.1 X106.253 Y106.354 E135.12966
G1 F1670.7 X106.247 Y106.558 E135.13888
G1 F1575 X106.282 Y106.663 E135.14418
G1 F1415.3 X106.178 Y106.828 E135.15457
G1 F1433.2 X103.274 Y111.855 E135.46014
G1 F1497 X103.195 Y111.91 E135.46499
G1 F1676.9 X102.999 Y111.948 E135.47397
G1 F1800 X97.001 Y111.948 E135.72534
G1 F1586 X96.756 Y111.902 E135.73719
G1 F1424.2 X96.726 Y111.856 E135.7401
G1 F1430.9 X93.822 Y106.828 E136.0462
G1 F1415.3 X93.718 Y106.663 E136.05659
G1 F1410.9 X93.765 Y106.267 E136.07792
G1 F1428.7 X93.822 Y106.172 E136.08377
G0 F3600 X93.922 Y105.999
G0 X93.27 Y106.385
G0 X86.611 Y106.37
G0 X83.221 Y100.5
G0 X83.78 Y100.373
G1 F1800 X86.782 Y95.177 E136.33525
G1 X86.853 Y95.099 E136.33967
G1 X87.001 Y95.052 E136.34618
G1 X92.999 Y95.051 E136.59754
G1 F1575 X93.218 Y95.064 E136.60805
G1 F1415.3 X93.274 Y95.145 E136.61329
G1 F1430.9 X96.178 Y100.173 E136.91939
G1 F1492.1 X96.253 Y100.354 E136.9293
G1 F1670.7 X96.247 Y100.558 E136.93851
G1 F1575 X96.282 Y100.663 E136.94381
G1 F1415.3 X96.178 Y100.828 E136.95421
G1 F1433.2 X93.274 Y105.855 E137.25978
G1 F1497 X93.195 Y105.91 E137.26463
G1 F1676.9 X92.999 Y105.948 E137.27361
G1 F1800 X86.979 Y105.948 E137.52589
G1 X86.836 Y105.887 E137.53241
G1 X86.782 Y105.823 E137.53592
G1 X83.78 Y100.627 E137.7874
G1 X83.751 Y100.455 E137.79471
G1 X83.78 Y100.373 E137.79835
G0 F3600 X83.88 Y100.2
G0 X83.46 Y99.956
G0 X83.36 Y112.13
G0 X83.78 Y112.373
G1 F1800 X86.782 Y107.177 E138.04984
G1 X86.836 Y107.113 E138.05335
G1 X87.001 Y107.052 E138.06072
G1 X92.999 Y107.052 E138.31208
G1 F1575 X93.218 Y107.064 E138.32259
G1 F1415.3 X93.274 Y107.145 E138.32784
G1 F1430.9 X96.178 Y112.173 E138.63393
G1 F1492.1 X96.253 Y112.354 E138.64384
G1 F1670.7 X96.247 Y112.558 E138.65305
G1 F1575 X96.282 Y112.663 E138.65835
G1 F1415.3 X96.178 Y112.828 E138.66875
G1 F1433.2 X93.274 Y117.855 E138.97432
G1 F1428.7 X93.245 Y117.902 E138.97723
G1 F1591.6 X92.999 Y117.949 E138.9891
G1 F1800 X87.001 Y117.948 E139.24046
G1 X86.853 Y117.901 E139.24697
G1 X86.782 Y117.823 E139.25139
G1 X83.78 Y112.627 E139.50288
G1 X83.751 Y112.455 E139.51019
G1 X83.78 Y112.373 E139.51383
G0 F3600 X83.88 Y112.2
G0 X83.46 Y111.956
G0 X86.611 Y106.63
G0 X86.931 Y106.5
;TYPE:WALL-INNER
G1 F749.8 X88.145 Y106.5 E139.5749
G1 F751 X89.359 Y106.5 E139.63587
G1 F752.2 X90.573 Y106.5 E139.69674
G1 F754.7 X91.787 Y106.5 E139.75741
G1 F756 X93.001 Y106.5 E139.81798
G1 F732.8 X93.176 Y106.5 E139.82698
G0 F3600 X93.161 Y106.5
G0 X96.839 Y100.5
G0 X96.824 Y100.5
G1 F729.3 X96.931 Y100.5 E139.83252
G1 F749.8 X98.145 Y100.5 E139.89359
G1 F751 X99.359 Y100.5 E139.95456
