;FLAVOR:Marlin
;TIME:6320
;Filament used: 5.76058m
;Layer height: 0.15
;MINX:76.632
;MINY:74.131
;MINZ:0.2
;MAXX:173.368
;MAXY:180.868
;MAXZ:6.05
;Generated with Cura_SteamEngine 5.0.0
M140 S70
M105
M190 S70
M104 S210
M105
M109 S210
M82 ;absolute extrusion mode
G21 ;metric values
G90 ;absolute positioning
M82 ;set extruder to absolute mode
M107 ;start with the fan off
G28 X0 Y0 ;move X/Y to min endstops
M300 S1318 P266
G28 Z0 ;move Z to min endstops
G0 Z0.2
G92 E0 ;zero the extruded length
G1 X40 E25 F400 ; Extrude 25mm of filament in a 4cm line. Reduce speed (F) if you have a nozzle smaller than 0.4mm!
G92 E0 ;zero the extruded length again
G1 E-1 F500 ; Retract a little
G1 X80 F4000 ; Quickly wipe away from the filament line
M117 ; Printing…
G5
G92 E0
G92 E0
G1 F1500 E-6.5
;LAYER_COUNT:40
;LAYER:0
M107
G0 F3600 X78.223 Y75.74 Z0.2
G0 X76.632 Y80.095
;TYPE:SKIRT
G1 F1500 E0
G1 F1800 X76.642 Y79.425 E0.02808
G1 X76.691 Y78.778 E0.05527
G1 X76.82 Y78.142 E0.08247
G1 X77.026 Y77.527 E0.10965
G1 X77.306 Y76.942 E0.13683
G1 X77.656 Y76.395 E0.16404
G1 X78.223 Y75.74 E0.20035
G1 X78.81 Y75.221 E0.23319
G1 X79.349 Y74.86 E0.26037
G1 X79.929 Y74.568 E0.28759
G1 X80.54 Y74.35 E0.31477
G1 X81.173 Y74.208 E0.34196
G1 X81.856 Y74.144 E0.37071
G1 X82.358 Y74.132 E0.39175
G1 X167.293 Y74.131 E3.95119
G1 X168.069 Y74.142 E3.98371
G1 X168.716 Y74.191 E4.0109
G1 X169.352 Y74.319 E4.03809
G1 X169.968 Y74.525 E4.06531
G1 X170.553 Y74.804 E4.09247
G1 X171.1 Y75.154 E4.11969
G1 X171.68 Y75.645 E4.15153
G1 X172.21 Y76.221 E4.18434
G1 X172.583 Y76.752 E4.21153
G1 X172.887 Y77.325 E4.23872
G1 X173.118 Y77.932 E4.26593
G1 X173.273 Y78.562 E4.29312
G1 X173.355 Y79.336 E4.32574
G1 X173.368 Y79.818 E4.34595
G1 X173.368 Y174.844 E8.32827
G1 X173.358 Y175.568 E8.35862
G1 X173.31 Y176.215 E8.38581
G1 X173.182 Y176.851 E8.413
G1 X172.976 Y177.466 E8.44018
G1 X172.697 Y178.052 E8.46738
G1 X172.347 Y178.599 E8.49459
G1 X171.796 Y179.239 E8.52998
G1 X171.212 Y179.762 E8.56284
G1 X170.675 Y180.125 E8.59
G1 X170.097 Y180.421 E8.61721
G1 X169.487 Y180.642 E8.6444
G1 X168.855 Y180.787 E8.67158
G1 X168.107 Y180.857 E8.70306
G1 X167.523 Y180.868 E8.72754
G1 X82.625 Y180.867 E12.28543
G1 X81.921 Y180.856 E12.31493
G1 X81.274 Y180.806 E12.34213
G1 X80.638 Y180.677 E12.36932
G1 X80.023 Y180.471 E12.3965
G1 X79.438 Y180.19 E12.4237
G1 X78.891 Y179.84 E12.45092
G1 X78.258 Y179.294 E12.48595
G1 X77.738 Y178.712 E12.51866
G1 X77.374 Y178.174 E12.54588
G1 X77.079 Y177.596 E12.57307
G1 X76.858 Y176.986 E12.60026
G1 X76.713 Y176.354 E12.62744
G1 X76.643 Y175.583 E12.65988
G1 X76.632 Y174.899 E12.68855
G1 X76.632 Y80.095 E16.66157
G0 F3600 X77.136 Y80.103
G1 F1800 X77.146 Y79.433 E16.68966
G1 X77.195 Y78.818 E16.71551
G1 X77.323 Y78.214 E16.74138
G1 X77.528 Y77.632 E16.76724
G1 X77.807 Y77.082 E16.79309
G1 X78.154 Y76.572 E16.81894
G1 X78.576 Y76.1 E16.84547
G1 X79.14 Y75.604 E16.87695
G1 X79.656 Y75.265 E16.90282
G1 X80.211 Y74.997 E16.92865
G1 X80.797 Y74.802 E16.95453
G1 X81.402 Y74.684 E16.98037
G1 X82.223 Y74.638 E17.01483
G1 X167.361 Y74.635 E20.58277
G1 X168.062 Y74.645 E20.61215
G1 X168.677 Y74.694 E20.638
G1 X169.281 Y74.822 E20.66388
G1 X169.863 Y75.027 E20.68974
G1 X170.413 Y75.305 E20.71556
G1 X170.924 Y75.652 E20.74145
G1 X171.327 Y76.005 E20.7639
G1 X171.835 Y76.558 E20.79537
G1 X172.184 Y77.067 E20.82123
G1 X172.465 Y77.617 E20.84712
G1 X172.672 Y78.198 E20.87297
G1 X172.802 Y78.801 E20.89882
G1 X172.852 Y79.352 E20.922
G1 X172.864 Y79.818 E20.94154
G1 X172.865 Y174.837 E24.92357
G1 X172.855 Y175.561 E24.95392
G1 X172.806 Y176.176 E24.97977
G1 X172.679 Y176.78 E25.00564
G1 X172.474 Y177.362 E25.0315
G1 X172.196 Y177.913 E25.05736
G1 X171.849 Y178.423 E25.08321
G1 X171.442 Y178.881 E25.10889
G1 X170.88 Y179.381 E25.14041
G1 X170.366 Y179.722 E25.16626
G1 X169.812 Y179.994 E25.19213
G1 X169.228 Y180.192 E25.21797
G1 X168.623 Y180.312 E25.24382
G1 X168.096 Y180.353 E25.26597
G1 X167.523 Y180.364 E25.28999
G1 X82.633 Y180.363 E28.84754
G1 X81.929 Y180.352 E28.87704
G1 X81.314 Y180.303 E28.9029
G1 X80.71 Y180.174 E28.92878
G1 X80.128 Y179.969 E28.95464
G1 X79.578 Y179.69 E28.98049
G1 X79.068 Y179.342 E29.00636
G1 X78.616 Y178.94 E29.03171
G1 X78.119 Y178.38 E29.06309
G1 X77.778 Y177.866 E29.08894
G1 X77.506 Y177.312 E29.1148
G1 X77.308 Y176.727 E29.14069
G1 X77.187 Y176.122 E29.16654
G1 X77.147 Y175.575 E29.18953
G1 X77.136 Y174.899 E29.21786
G1 X77.136 Y80.103 E33.19055
G0 F3600 X77.639 Y80.11
G1 F1800 X77.649 Y79.44 E33.21863
G1 X77.698 Y78.859 E33.24307
G1 X77.826 Y78.29 E33.26751
G1 X78.03 Y77.743 E33.29197
G1 X78.307 Y77.23 E33.31641
G1 X78.651 Y76.759 E33.34085
G1 X79.025 Y76.366 E33.36358
G1 X79.468 Y75.988 E33.38799
G1 X79.96 Y75.673 E33.41247
G1 X80.49 Y75.429 E33.43692
G1 X81.048 Y75.259 E33.46137
G1 X81.884 Y75.152 E33.49669
G1 X82.358 Y75.14 E33.51656
G1 X167.354 Y75.139 E37.07855
G1 X168.055 Y75.149 E37.10793
G1 X168.636 Y75.198 E37.13237
G1 X169.206 Y75.325 E37.15684
G1 X169.752 Y75.529 E37.18127
G1 X170.266 Y75.805 E37.20572
G1 X170.737 Y76.15 E37.23019
G1 X171.07 Y76.459 E37.24922
G1 X171.458 Y76.895 E37.27368
G1 X171.783 Y77.38 E37.29815
G1 X172.039 Y77.904 E37.32259
G1 X172.22 Y78.459 E37.34705
G1 X172.324 Y79.033 E37.3715
G1 X172.358 Y79.683 E37.39878
G1 X172.361 Y174.83 E41.38618
G1 X172.351 Y175.554 E41.41652
G1 X172.303 Y176.135 E41.44095
G1 X172.176 Y176.705 E41.46542
G1 X171.972 Y177.252 E41.48989
G1 X171.696 Y177.765 E41.5143
G1 X171.352 Y178.237 E41.53878
G1 X170.991 Y178.618 E41.56078
G1 X170.55 Y178.999 E41.5852
G1 X170.06 Y179.316 E41.60966
G1 X169.531 Y179.563 E41.63412
G1 X168.974 Y179.736 E41.65857
G1 X168.398 Y179.831 E41.68303
G1 X167.613 Y179.859 E41.71595
G1 X82.64 Y179.859 E45.27698
G1 X81.936 Y179.848 E45.30648
G1 X81.355 Y179.799 E45.33092
G1 X80.786 Y179.671 E45.35536
G1 X80.239 Y179.467 E45.37983
G1 X79.726 Y179.189 E45.40428
G1 X79.256 Y178.845 E45.42869
G1 X78.882 Y178.491 E45.45027
G1 X78.501 Y178.049 E45.47472
G1 X78.184 Y177.559 E45.49918
G1 X77.937 Y177.031 E45.52361
G1 X77.764 Y176.474 E45.54805
G1 X77.669 Y175.898 E45.57252
G1 X77.641 Y174.97 E45.61143
G1 X77.639 Y80.11 E49.5868
G0 F3600 X78.143 Y80.118
G1 F1800 X78.153 Y79.448 E49.61488
G1 X78.202 Y78.902 E49.63785
G1 X78.328 Y78.369 E49.6608
G1 X78.532 Y77.861 E49.68375
G1 X78.807 Y77.387 E49.70671
G1 X79.281 Y76.82 E49.73768
G1 X79.796 Y76.373 E49.76626
G1 X80.261 Y76.084 E49.78921
G1 X80.763 Y75.865 E49.81216
G1 X81.292 Y75.722 E49.83512
G1 X81.899 Y75.656 E49.86071
G1 X82.358 Y75.644 E49.87995
G1 X167.347 Y75.643 E53.44165
G1 X168.048 Y75.653 E53.47103
G1 X168.593 Y75.701 E53.49396
G1 X169.126 Y75.828 E53.51692
G1 X169.635 Y76.031 E53.53989
G1 X170.109 Y76.305 E53.56283
G1 X170.622 Y76.725 E53.59062
G1 X171.08 Y77.23 E53.61919
G1 X171.379 Y77.689 E53.64214
G1 X171.608 Y78.187 E53.66512
G1 X171.762 Y78.713 E53.68808
G1 X171.844 Y79.384 E53.71641
G1 X171.856 Y79.818 E53.73461
G1 X171.857 Y174.823 E57.71606
G1 X171.847 Y175.547 E57.7464
G1 X171.799 Y176.093 E57.76937
G1 X171.673 Y176.626 E57.79232
G1 X171.47 Y177.135 E57.81529
G1 X171.196 Y177.609 E57.83823
G1 X170.733 Y178.165 E57.86855
G1 X170.221 Y178.616 E57.89715
G1 X169.757 Y178.907 E57.9201
G1 X169.255 Y179.128 E57.94309
G1 X168.727 Y179.274 E57.96604
G1 X168.075 Y179.345 E57.99353
G1 X167.523 Y179.356 E58.01667
G1 X82.648 Y179.356 E61.57359
G1 X81.944 Y179.345 E61.6031
G1 X81.399 Y179.296 E61.62603
G1 X80.866 Y179.169 E61.64899
G1 X80.357 Y178.965 E61.67197
G1 X79.884 Y178.69 E61.6949
G1 X79.333 Y178.231 E61.72495
G1 X78.884 Y177.72 E61.75346
G1 X78.593 Y177.256 E61.77641
G1 X78.372 Y176.755 E61.79936
G1 X78.226 Y176.227 E61.82232
G1 X78.155 Y175.558 E61.85051
G1 X78.144 Y174.899 E61.87813
G1 X78.143 Y80.118 E65.85019
G0 F3600 X78.647 Y80.125
G1 F1800 X78.657 Y79.455 E65.87828
G1 X78.705 Y78.948 E65.89962
G1 X78.831 Y78.454 E65.92098
G1 X79.033 Y77.986 E65.94235
G1 X79.305 Y77.555 E65.9637
G1 X79.73 Y77.086 E65.99023
G1 X80.121 Y76.759 E66.01159
G1 X80.558 Y76.498 E66.03292
G1 X81.031 Y76.307 E66.0543
G1 X81.528 Y76.193 E66.07567
G1 X82.266 Y76.149 E66.10665
G1 X167.339 Y76.147 E69.67187
G1 X168.04 Y76.157 E69.70125
G1 X168.548 Y76.205 E69.72263
G1 X169.042 Y76.33 E69.74399
G1 X169.51 Y76.532 E69.76535
G1 X169.941 Y76.804 E69.78671
G1 X170.365 Y77.179 E69.81043
G1 X170.7 Y77.563 E69.83179
G1 X170.971 Y77.995 E69.85316
G1 X171.171 Y78.464 E69.87452
G1 X171.296 Y78.958 E69.89588
G1 X171.35 Y79.715 E69.92768
G1 X171.353 Y174.816 E73.91316
G1 X171.343 Y175.54 E73.9435
G1 X171.296 Y176.047 E73.96484
G1 X171.17 Y176.541 E73.9862
G1 X170.969 Y177.01 E74.00759
G1 X170.697 Y177.441 E74.02895
G1 X170.282 Y177.902 E74.05494
G1 X169.893 Y178.231 E74.07629
G1 X169.457 Y178.495 E74.09765
G1 X168.986 Y178.687 E74.11897
G1 X168.489 Y178.804 E74.14036
G1 X167.592 Y178.851 E74.17801
G1 X82.656 Y178.852 E77.73749
G1 X81.952 Y178.841 E77.76699
G1 X81.445 Y178.793 E77.78833
G1 X80.951 Y178.666 E77.80971
G1 X80.483 Y178.464 E77.83107
G1 X80.053 Y178.191 E77.85242
G1 X79.598 Y177.782 E77.87806
G1 X79.269 Y177.393 E77.89941
G1 X79.005 Y176.957 E77.92077
G1 X78.812 Y176.485 E77.94214
G1 X78.696 Y175.989 E77.96348
G1 X78.648 Y174.954 E78.00691
G1 X78.647 Y80.125 E81.98098
G1 F1500 E75.48098
;MESH:orient-beetle-v2-front.stl
G0 F3600 X81.235 Y80.126
G0 X82.33 Y80.125
G1 F1500 E81.98098
G0 F3600 X82.151 Y79.652
;TYPE:WALL-OUTER
G1 F1800 X82.152 Y175.348 E85.99138
G1 X167.849 Y175.348 E89.58275
G1 X167.849 Y79.65 E93.59324
G1 X129.249 Y79.652 E95.21088
G1 X82.151 Y79.652 E97.18466
G0 F3600 X82.151 Y79.852
G0 X82.609 Y80.11
G0 X82.656 Y93.937
;TYPE:WALL-INNER
G1 F1728 X82.675 Y94.501 E97.20929
G1 X82.656 Y95.063 E97.23384
G1 F1800 X82.656 Y105.937 E97.68954
G1 F1728 X82.675 Y106.501 E97.71418
G1 X82.656 Y107.063 E97.73873
G1 F1800 X82.656 Y117.937 E98.19443
G1 F1728 X82.675 Y118.501 E98.21907
G1 X82.656 Y119.063 E98.24361
G1 F1800 X82.656 Y174.844 E100.58127
G1 X167.345 Y174.844 E104.1304
G1 X167.345 Y80.154 E108.09864
G1 X129.249 Y80.156 E109.69516
G1 X82.655 Y80.156 E111.64781
G1 X82.656 Y93.937 E112.22534
G0 F3600 X83.78 Y94.373
;TYPE:WALL-OUTER
G1 F1800 X86.782 Y89.177 E112.47683
G1 X86.944 Y89.058 E112.48525
G1 X87.001 Y89.052 E112.48765
G1 X92.999 Y89.051 E112.73902
G1 F1575 X93.218 Y89.064 E112.74952
G1 F1415.3 X93.274 Y89.145 E112.75477
G1 F1430.9 X96.178 Y94.173 E113.06087
G1 F1492.1 X96.253 Y94.354 E113.07077
G1 F1670.7 X96.247 Y94.558 E113.07999
G1 F1575 X96.282 Y94.663 E113.08529
G1 F1415.3 X96.178 Y94.828 E113.09568
G1 F1433.2 X93.274 Y99.855 E113.40125
G1 F1497 X93.195 Y99.91 E113.4061
G1 F1676.9 X92.999 Y99.948 E113.41508
G1 F1800 X86.979 Y99.948 E113.66737
G1 X86.836 Y99.887 E113.67388
G1 X86.5 Y99.335 E113.70097
G1 X83.78 Y94.627 E113.92883
G1 X83.747 Y94.501 E113.93429
G1 X83.78 Y94.373 E113.93983
G0 F3600 X83.88 Y94.2
G0 X83.46 Y93.956
G0 X86.611 Y100.37
G0 X93.27 Y100.385
G0 X93.822 Y100.172
G1 F1433.2 X96.726 Y95.145 E114.2454
G1 F1415.3 X96.782 Y95.064 E114.25064
G1 F1575 X97.001 Y95.052 E114.26115
G1 F1800 X102.999 Y95.052 E114.51251
G1 F1575 X103.218 Y95.064 E114.52302
G1 F1415.3 X103.274 Y95.145 E114.52826
G1 F1430.9 X106.178 Y100.173 E114.83436
G1 F1492.1 X106.253 Y100.354 E114.84427
G1 F1670.7 X106.247 Y100.558 E114.85348
G1 F1575 X106.282 Y100.663 E114.85878
G1 F1415.3 X106.178 Y100.828 E114.86918
G1 F1433.2 X103.274 Y105.855 E115.17475
G1 F1497 X103.195 Y105.91 E115.1796
G1 F1676.9 X102.999 Y105.948 E115.18858
G1 F1800 X96.979 Y105.948 E115.44086
G1 F1586 X96.756 Y105.902 E115.45169
G1 F1424.2 X96.726 Y105.856 E115.4546
G1 F1430.9 X93.822 Y100.828 E115.7607
G1 F1415.3 X93.718 Y100.663 E115.77109
G1 F1410.9 X93.765 Y100.267 E115.79241
G1 F1428.7 X93.822 Y100.172 E115.79826
G0 F3600 X93.922 Y99.999
G0 X93.27 Y100.385
G0 X96.733 Y106.16
G0 X103.27 Y106.385
G0 X103.822 Y106.172
G1 F1433.2 X106.726 Y101.145 E116.10383
G1 F1415.3 X106.782 Y101.064 E116.10908
G1 F1575 X107.001 Y101.052 E116.11958
G1 F1800 X112.999 Y101.052 E116.37095
G1 X113.164 Y101.113 E116.37832
G1 X113.62 Y101.874 E116.4155
G1 X116.22 Y106.373 E116.63326
G1 X116.25 Y106.544 E116.64054
G1 X116.22 Y106.627 E116.64424
G1 X113.218 Y111.823 E116.89572
G1 X113.164 Y111.887 E116.89923
G1 X112.999 Y111.948 E116.9066
G1 X106.979 Y111.948 E117.15888
G1 F1586 X106.756 Y111.902 E117.16971
G1 F1424.2 X106.726 Y111.856 E117.17262
G1 F1430.9 X103.822 Y106.828 E117.47872
G1 F1415.3 X103.718 Y106.663 E117.48912
G1 F1410.9 X103.765 Y106.267 E117.51044
G1 F1428.7 X103.822 Y106.172 E117.51629
G0 F3600 X103.922 Y105.999
G0 X103.27 Y106.385
G0 X96.733 Y106.84
G0 X93.27 Y112.385
G0 X93.822 Y112.172
G1 F1433.2 X96.726 Y107.145 E117.82185
G1 F1415.3 X96.782 Y107.064 E117.8271
G1 F1575 X97.001 Y107.052 E117.83761
G1 F1800 X102.999 Y107.052 E118.08897
G1 F1575 X103.218 Y107.064 E118.09947
G1 F1415.3 X103.274 Y107.145 E118.10472
G1 F1430.9 X106.178 Y112.173 E118.41082
G1 F1492.1 X106.253 Y112.354 E118.42073
G1 F1670.7 X106.247 Y112.442 E118.42471
G1 F1575 X106.282 Y112.663 E118.43542
G1 F1415.3 X106.178 Y112.828 E118.44582
G1 F1433.2 X103.274 Y117.855 E118.75139
G1 F1497 X103.195 Y117.91 E118.75624
G1 F1676.9 X102.999 Y117.948 E118.76522
G1 F1800 X96.979 Y117.948 E119.0175
G1 F1586 X96.756 Y117.902 E119.02833
G1 F1424.2 X96.726 Y117.856 E119.03124
G1 F1430.9 X93.822 Y112.828 E119.33734
G1 F1415.3 X93.718 Y112.663 E119.34773
G1 F1410.9 X93.765 Y112.267 E119.36906
G1 F1428.7 X93.822 Y112.172 E119.37491
G0 F3600 X93.922 Y111.999
G0 X93.27 Y112.385
G0 X86.611 Y112.37
G0 X83.221 Y106.5
G0 X83.78 Y106.373
G1 F1800 X86.782 Y101.177 E119.62639
G1 X86.836 Y101.113 E119.6299
G1 X87.001 Y101.052 E119.63727
G1 X92.999 Y101.052 E119.88863
G1 F1575 X93.218 Y101.064 E119.89914
G1 F1415.3 X93.274 Y101.145 E119.90439
G1 F1430.9 X96.178 Y106.173 E120.21048
G1 F1492.1 X96.253 Y106.354 E120.22039
G1 F1670.7 X96.247 Y106.558 E120.2296
G1 F1575 X96.282 Y106.663 E120.2349
G1 F1415.3 X96.178 Y106.828 E120.2453
G1 F1433.2 X93.274 Y111.855 E120.55087
G1 F1497 X93.195 Y111.91 E120.55572
G1 F1676.9 X92.999 Y111.948 E120.5647
G1 F1800 X86.979 Y111.948 E120.81698
G1 X86.836 Y111.887 E120.8235
G1 X86.5 Y111.335 E120.85058
G1 X83.78 Y106.627 E121.07844
G1 X83.747 Y106.501 E121.0839
G1 X83.78 Y106.373 E121.08944
G0 F3600 X83.88 Y106.2
G0 X83.46 Y105.956
G0 X86.611 Y100.63
G0 X86.931 Y100.5
;TYPE:WALL-INNER
G1 F749.8 X88.145 Y100.5 E121.15051
G1 F751 X89.359 Y100.5 E121.21148
G1 F752.2 X90.573 Y100.5 E121.27235
G1 F754.7 X91.787 Y100.5 E121.33302
G1 F756 X93.001 Y100.5 E121.39359
G1 F732.8 X93.176 Y100.5 E121.40259
G0 F3600 X93.161 Y100.5
G0 X96.839 Y106.5
G0 X96.824 Y106.5
G1 F729.3 X96.931 Y106.5 E121.40813
G1 F749.8 X98.145 Y106.5 E121.4692
G1 F751 X99.359 Y106.5 E121.53017
G1 F752.2 X100.573 Y106.5 E121.59104
G1 F754.7 X101.787 Y106.5 E121.65171
G1 F756 X103.001 Y106.5 E121.71227
G1 F732.8 X103.176 Y106.5 E121.72128
G0 F3600 X103.161 Y106.5
G0 X106.917 Y112.5
G0 X103.27 Y118.385
G0 X103.822 Y118.172
;TYPE:WALL-OUTER
G1 F1433.2 X106.726 Y113.145 E122.02685
G1 F1415.3 X106.782 Y113.064 E122.0321
G1 F1575 X107.001 Y113.052 E122.0426
G1 F1800 X112.999 Y113.052 E122.29397
G1 X113.164 Y113.113 E122.30134
G1 X113.62 Y113.874 E122.33852
G1 X116.22 Y118.373 E122.55628
G1 X116.25 Y118.544 E122.56356
G1 X116.22 Y118.627 E122.56725
G1 X113.218 Y123.823 E122.81874
G1 X113.084 Y123.934 E122.82603
G1 X113.039 Y123.945 E122.82797
G1 X112.999 Y123.948 E122.82965
G1 X107.001 Y123.948 E123.08101
G1 F1586 X106.756 Y123.902 E123.09287
G1 F1424.2 X106.726 Y123.856 E123.09578
G1 F1430.9 X103.822 Y118.828 E123.40188
G1 F1415.3 X103.718 Y118.663 E123.41227
G1 F1410.9 X103.765 Y118.267 E123.43359
G1 F1428.7 X103.822 Y118.172 E123.43944
G0 F3600 X103.922 Y117.999
G0 X103.27 Y118.385
G0 X106.839 Y112.5
G0 X106.824 Y112.5
;TYPE:WALL-INNER
G1 F729.3 X106.931 Y112.5 E123.44498
G1 F749.8 X108.145 Y112.5 E123.50605
G1 F751 X109.359 Y112.5 E123.56702
G1 F752.2 X110.573 Y112.5 E123.62789
G1 F754.7 X111.787 Y112.5 E123.68856
G1 F756 X113.001 Y112.5 E123.74912
G0 F3600 X116.779 Y106.5
G0 X116.105 Y105.337
G0 X118.965 Y93.935
G0 X119.449 Y93.982
;TYPE:WALL-OUTER
G1 F900 X119.493 Y93.573 E123.76636
