;FLAVOR:Marlin
;TIME:11780
;Filament used: 9.60922m
;Layer height: 0.15
;MINX:82.743
;MINY:68.879
;MINZ:0.2
;MAXX:167.254
;MAXY:186.12
;MAXZ:17
;Generated with Cura_SteamEngine 5.0.0
M140 S70
M105
M190 S70
M104 S210
M105
M109 S210
M82 ;absolute extrusion mode
G21 ;metric values
G90 ;absolute positioning
M82 ;set extruder to absolute mode
M107 ;start with the fan off
G28 X0 Y0 ;move X/Y to min endstops
M300 S1318 P266
G28 Z0 ;move Z to min endstops
G0 Z0.2
G92 E0 ;zero the extruded length
G1 X40 E25 F400 ; Extrude 25mm of filament in a 4cm line. Reduce speed (F) if you have a nozzle smaller than 0.4mm!
G92 E0 ;zero the extruded length again
G1 E-1 F500 ; Retract a little
G1 X80 F4000 ; Quickly wipe away from the filament line
M117 ; Printing…
G5
G92 E0
G92 E0
G1 F1500 E-6.5
;LAYER_COUNT:113
;LAYER:0
M107
G0 F3600 X93.092 Y73.086 Z0.2
G0 X92.069 Y76.188
;TYPE:SKIRT
G1 F1500 E0
G1 F1800 X92.158 Y75.481 E0.02986
G1 X92.279 Y74.843 E0.05708
G1 X92.477 Y74.226 E0.08423
G1 X92.749 Y73.637 E0.11142
G1 X93.092 Y73.086 E0.13862
G1 X93.5 Y72.581 E0.16583
G1 X94.176 Y71.928 E0.20522
G1 X95.648 Y70.613 E0.28794
G1 X96.168 Y70.165 E0.3167
G1 X96.684 Y69.772 E0.34388
G1 X97.245 Y69.447 E0.37105
G1 X97.842 Y69.192 E0.39826
G1 X98.466 Y69.013 E0.42546
G1 X99.107 Y68.912 E0.45266
G1 X100.035 Y68.88 E0.49157
G1 X149.696 Y68.879 E2.57275
G1 X150.474 Y68.89 E2.60536
G1 X151.121 Y68.939 E2.63255
G1 X151.757 Y69.067 E2.65974
G1 X152.372 Y69.273 E2.68692
G1 X152.958 Y69.552 E2.71412
G1 X153.505 Y69.902 E2.74133
G1 X154.265 Y70.535 E2.78278
G1 X155.677 Y71.799 E2.8622
G1 X156.178 Y72.259 E2.89071
G1 X156.628 Y72.726 E2.91789
G1 X157.017 Y73.245 E2.94507
G1 X157.339 Y73.808 E2.97225
G1 X157.59 Y74.407 E2.99947
G1 X157.765 Y75.032 E3.02667
G1 X157.905 Y75.964 E3.06616
G1 X158.664 Y82.76 E3.35274
G1 X159.011 Y85.511 E3.46894
G1 X159.418 Y88.146 E3.58068
G1 X159.9 Y90.77 E3.69248
G1 X160.456 Y93.377 E3.80419
G1 X161.088 Y95.98 E3.91645
G1 X161.8 Y98.586 E4.02966
G1 X162.581 Y101.158 E4.14231
G1 X163.426 Y103.677 E4.25366
G1 X164.359 Y106.225 E4.36737
G1 X165.342 Y108.686 E4.47843
G1 X166.506 Y111.371 E4.60107
G1 X166.796 Y112.018 E4.63078
G1 X167.025 Y112.626 E4.65801
G1 X167.177 Y113.256 E4.68517
G1 X167.25 Y113.901 E4.71237
G1 X167.243 Y114.55 E4.73957
G1 X167.139 Y115.282 E4.77056
G1 X166.531 Y118.104 E4.89153
G1 X166.054 Y120.674 E5.00108
G1 X165.637 Y123.34 E5.11416
G1 X165.294 Y126.026 E5.22764
G1 X165.034 Y128.657 E5.33844
G1 X164.843 Y131.354 E5.45174
G1 X164.731 Y134.024 E5.56374
G1 X164.694 Y136.696 E5.67572
G1 X164.733 Y139.367 E5.78767
G1 X164.847 Y142.039 E5.89975
G1 X165.038 Y144.732 E6.01289
G1 X165.304 Y147.4 E6.12526
G1 X165.644 Y150.046 E6.23706
G1 X166.059 Y152.688 E6.34913
G1 X166.551 Y155.326 E6.46159
G1 X167.139 Y158.056 E6.57863
G1 X167.236 Y158.698 E6.60584
G1 X167.254 Y159.346 E6.633
G1 X167.192 Y159.992 E6.6602
G1 X167.051 Y160.626 E6.68742
G1 X166.833 Y161.237 E6.7146
G1 X166.589 Y161.734 E6.73781
G1 X166.206 Y162.418 E6.77066
G1 X164.375 Y165.589 E6.92411
G1 X164.007 Y166.204 E6.95415
G1 X163.678 Y166.689 E6.97871
G1 X163.076 Y167.48 E7.02037
G1 X162.527 Y168.179 E7.05761
G1 X160.921 Y170.348 E7.17072
G1 X159.402 Y172.527 E7.28203
G1 X157.929 Y174.772 E7.39456
G1 X156.445 Y177.181 E7.51313
G1 X156.04 Y177.75 E7.5424
G1 X155.348 Y178.596 E7.58821
G1 X153.992 Y180.189 E7.67588
G1 X153.539 Y180.708 E7.70475
G1 X153.083 Y181.17 E7.73195
G1 X152.574 Y181.572 E7.75913
G1 X152.002 Y181.917 E7.78712
G1 X151.055 Y182.409 E7.83185
G1 X147.061 Y184.393 E8.01874
G1 X146.427 Y184.697 E8.04821
G1 X145.825 Y184.941 E8.07543
G1 X144.609 Y185.264 E8.12816
G1 X142.185 Y185.832 E8.23249
G1 X141.5 Y185.983 E8.26189
G1 X140.859 Y186.084 E8.28908
G1 X139.614 Y186.12 E8.34128
G1 X110.259 Y186.116 E9.57148
G1 X109.582 Y186.107 E9.59986
G1 X108.935 Y186.058 E9.62705
G1 X107.69 Y185.803 E9.68031
G1 X105.31 Y185.244 E9.78276
G1 X104.601 Y185.067 E9.81339
G1 X103.982 Y184.871 E9.8406
G1 X102.855 Y184.351 E9.89261
G1 X98.716 Y182.294 E10.08631
G1 X98.048 Y181.95 E10.1178
G1 X97.491 Y181.618 E10.14497
G1 X96.978 Y181.22 E10.17218
G1 X96.51 Y180.753 E10.19989
G1 X95.83 Y179.981 E10.243
G1 X94.455 Y178.362 E10.33202
G1 X93.985 Y177.791 E10.36301
G1 X93.555 Y177.187 E10.39408
G1 X92.947 Y176.19 E10.44302
G1 X91.472 Y173.854 E10.5588
G1 X89.976 Y171.626 E10.67127
G1 X88.436 Y169.469 E10.78233
G1 X86.796 Y167.302 E10.89622
G1 X86.341 Y166.713 E10.92742
G1 X85.99 Y166.198 E10.95353
G1 X85.58 Y165.512 E10.98703
G1 X83.728 Y162.301 E11.14237
G1 X83.402 Y161.712 E11.17058
G1 X83.123 Y161.126 E11.19778
G1 X82.919 Y160.51 E11.22498
G1 X82.791 Y159.874 E11.25216
G1 X82.743 Y159.227 E11.27935
G1 X82.775 Y158.579 E11.30654
G1 X82.861 Y158.052 E11.32892
G1 X83.469 Y155.23 E11.4499
G1 X83.946 Y152.66 E11.55944
G1 X84.363 Y149.994 E11.67252
G1 X84.706 Y147.308 E11.786
G1 X84.966 Y144.677 E11.8968
G1 X85.157 Y141.979 E12.01015
G1 X85.269 Y139.302 E12.12243
G1 X85.306 Y136.623 E12.23471
G1 X85.267 Y133.967 E12.34603
G1 X85.153 Y131.295 E12.45811
G1 X84.961 Y128.595 E12.57155
G1 X84.695 Y125.929 E12.68383
G1 X84.356 Y123.287 E12.79546
G1 X83.937 Y120.623 E12.90847
G1 X83.448 Y117.999 E13.02033
G1 X82.861 Y115.274 E13.13715
G1 X82.764 Y114.633 E13.16432
G1 X82.746 Y113.984 E13.19153
G1 X82.808 Y113.338 E13.21873
G1 X82.949 Y112.705 E13.2459
G1 X83.209 Y111.999 E13.27743
G1 X83.507 Y111.339 E13.30778
G1 X84.608 Y108.803 E13.42364
G1 X85.6 Y106.326 E13.53546
G1 X86.514 Y103.847 E13.64619
G1 X87.382 Y101.267 E13.76027
G1 X88.157 Y98.733 E13.87132
G1 X88.87 Y96.136 E13.98418
G1 X89.501 Y93.554 E14.09557
G1 X90.074 Y90.888 E14.20985
G1 X90.556 Y88.286 E14.32074
G1 X90.972 Y85.624 E14.43366
G1 X91.335 Y82.766 E14.55439
G1 X92.069 Y76.188 E14.83177
G0 F3600 X92.569 Y76.251
G1 F1800 X92.658 Y75.544 E14.86163
G1 X92.775 Y74.938 E14.8875
G1 X92.969 Y74.352 E14.91337
G1 X93.237 Y73.796 E14.93923
G1 X93.574 Y73.28 E14.96506
G1 X94.137 Y72.654 E15.00035
G1 X94.593 Y72.23 E15.02644
G1 X95.976 Y70.995 E15.10414
G1 X96.496 Y70.547 E15.13291
G1 X96.989 Y70.175 E15.15879
G1 X97.526 Y69.87 E15.18467
G1 X98.097 Y69.637 E15.21052
G1 X98.694 Y69.48 E15.23639
G1 X99.524 Y69.393 E15.27136
G1 X100.126 Y69.383 E15.29659
G1 X149.764 Y69.383 E17.37681
G1 X150.467 Y69.393 E17.40627
G1 X151.082 Y69.442 E17.43213
G1 X151.686 Y69.57 E17.458
G1 X152.268 Y69.775 E17.48386
G1 X152.818 Y70.053 E17.50969
G1 X153.512 Y70.551 E17.54549
G1 X154.001 Y70.974 E17.57258
G1 X155.336 Y72.17 E17.6477
G1 X155.837 Y72.63 E17.6762
G1 X156.264 Y73.076 E17.70208
G1 X156.629 Y73.573 E17.72792
G1 X156.927 Y74.113 E17.75377
G1 X157.152 Y74.688 E17.77964
G1 X157.339 Y75.523 E17.8155
G1 X157.416 Y76.117 E17.8406
G1 X158.164 Y82.823 E18.12338
G1 X158.512 Y85.58 E18.23984
G1 X158.918 Y88.209 E18.35132
G1 X159.412 Y90.895 E18.46577
G1 X159.966 Y93.496 E18.57722
G1 X160.596 Y96.094 E18.68925
G1 X161.322 Y98.75 E18.80464
G1 X162.095 Y101.295 E18.91611
G1 X162.956 Y103.861 E19.02953
G1 X163.88 Y106.386 E19.14221
G1 X164.875 Y108.875 E19.25455
G1 X166.064 Y111.617 E19.3798
G1 X166.336 Y112.224 E19.40767
G1 X166.552 Y112.803 E19.43357
G1 X166.691 Y113.404 E19.45942
G1 X166.75 Y114.018 E19.48527
G1 X166.731 Y114.635 E19.51114
G1 X166.646 Y115.176 E19.53409
G1 X166.043 Y117.977 E19.65416
G1 X165.554 Y120.609 E19.76635
G1 X165.138 Y123.269 E19.87918
G1 X164.796 Y125.948 E19.99236
G1 X164.53 Y128.633 E20.10544
G1 X164.342 Y131.299 E20.21744
G1 X164.228 Y133.995 E20.33053
G1 X164.19 Y136.731 E20.4452
G1 X164.229 Y139.36 E20.55538
G1 X164.345 Y142.089 E20.66985
G1 X164.536 Y144.781 E20.78295
G1 X164.802 Y147.443 E20.89507
G1 X165.146 Y150.122 E21.00826
G1 X165.563 Y152.782 E21.1211
G1 X166.055 Y155.419 E21.23351
G1 X166.646 Y158.162 E21.3511
G1 X166.737 Y158.773 E21.37699
G1 X166.748 Y159.39 E21.40285
G1 X166.679 Y160.003 E21.4287
G1 X166.531 Y160.602 E21.45456
G1 X166.308 Y161.177 E21.48041
G1 X165.804 Y162.106 E21.5247
G1 X163.942 Y165.33 E21.68073
G1 X163.574 Y165.945 E21.71076
G1 X163.277 Y166.384 E21.73297
G1 X162.679 Y167.169 E21.77433
G1 X162.133 Y167.865 E21.8114
G1 X160.522 Y170.04 E21.92483
G1 X158.987 Y172.242 E22.03732
G1 X157.498 Y174.512 E22.15109
G1 X156.016 Y176.917 E22.26948
G1 X155.65 Y177.432 E22.29596
G1 X154.964 Y178.269 E22.34131
G1 X153.612 Y179.858 E22.42874
G1 X153.159 Y180.377 E22.45761
G1 X152.724 Y180.814 E22.48345
G1 X152.236 Y181.192 E22.50932
G1 X151.769 Y181.47 E22.5321
G1 X150.831 Y181.957 E22.57639
G1 X146.843 Y183.939 E22.76302
G1 X146.209 Y184.243 E22.79249
G1 X145.636 Y184.473 E22.81836
G1 X144.486 Y184.775 E22.86819
G1 X142.077 Y185.34 E22.97188
G1 X141.392 Y185.491 E23.00128
G1 X140.782 Y185.585 E23.02715
G1 X139.605 Y185.616 E23.07649
G1 X110.266 Y185.612 E24.30602
G1 X109.589 Y185.603 E24.3344
G1 X108.974 Y185.554 E24.36025
G1 X107.798 Y185.311 E24.41057
G1 X105.432 Y184.755 E24.51243
G1 X104.723 Y184.578 E24.54305
G1 X104.135 Y184.39 E24.56892
G1 X103.072 Y183.896 E24.61805
G1 X98.947 Y181.846 E24.81109
G1 X98.279 Y181.502 E24.84258
G1 X97.75 Y181.185 E24.86842
G1 X97.266 Y180.802 E24.89429
G1 X96.888 Y180.419 E24.91684
G1 X96.214 Y179.655 E24.95953
G1 X94.844 Y178.042 E25.04822
G1 X94.374 Y177.471 E25.07922
G1 X93.986 Y176.925 E25.10729
G1 X93.351 Y175.884 E25.15839
G1 X91.899 Y173.584 E25.27238
G1 X90.402 Y171.355 E25.3849
G1 X88.828 Y169.151 E25.4984
G1 X87.195 Y166.993 E25.61181
G1 X86.74 Y166.404 E25.643
G1 X86.423 Y165.939 E25.66659
G1 X86.017 Y165.26 E25.69974
G1 X84.169 Y162.057 E25.85471
G1 X83.843 Y161.468 E25.88293
G1 X83.58 Y160.91 E25.90878
G1 X83.391 Y160.323 E25.93462
G1 X83.279 Y159.716 E25.96049
G1 X83.247 Y159.099 E25.98638
G1 X83.295 Y158.484 E26.01223
G1 X83.354 Y158.158 E26.02612
G1 X83.957 Y155.357 E26.14619
G1 X84.448 Y152.715 E26.25881
G1 X84.863 Y150.055 E26.37163
G1 X85.204 Y147.382 E26.48456
G1 X85.471 Y144.692 E26.59784
G1 X85.658 Y142.035 E26.70947
G1 X85.772 Y139.323 E26.82322
G1 X85.81 Y136.603 E26.93722
G1 X85.771 Y133.974 E27.04741
G1 X85.654 Y131.236 E27.16226
G1 X85.464 Y128.552 E27.27502
G1 X85.197 Y125.879 E27.3876
G1 X84.854 Y123.207 E27.50049
G1 X84.435 Y120.541 E27.61359
G1 X83.945 Y117.913 E27.72562
G1 X83.354 Y115.168 E27.84329
G1 X83.263 Y114.558 E27.86914
G1 X83.252 Y113.941 E27.895
G1 X83.321 Y113.328 E27.92085
G1 X83.469 Y112.728 E27.94675
G1 X83.668 Y112.206 E27.97016
G1 X83.99 Y111.492 E28.00299
G1 X85.051 Y109.051 E28.11453
G1 X86.083 Y106.475 E28.23083
G1 X86.994 Y104.001 E28.34131
G1 X87.858 Y101.437 E28.4547
G1 X88.643 Y98.866 E28.56735
G1 X89.361 Y96.251 E28.681
G1 X89.991 Y93.675 E28.79213
G1 X90.57 Y90.98 E28.90765
G1 X91.051 Y88.384 E29.0183
G1 X91.471 Y85.699 E29.13219
G1 X91.827 Y82.891 E29.25081
G1 X92.569 Y76.251 E29.53081
G0 F3600 X93.069 Y76.314
G1 F1800 X93.158 Y75.607 E29.56067
G1 X93.271 Y75.034 E29.58515
G1 X93.46 Y74.483 E29.60956
G1 X93.723 Y73.962 E29.63402
G1 X94.055 Y73.482 E29.65847
G1 X94.48 Y73.023 E29.68469
G1 X94.929 Y72.606 E29.71037
G1 X96.305 Y71.377 E29.78769
G1 X96.825 Y70.929 E29.81645
G1 X97.293 Y70.579 E29.84094
G1 X97.803 Y70.296 E29.86538
G1 X98.347 Y70.086 E29.88982
G1 X98.915 Y69.952 E29.91428
G1 X99.532 Y69.897 E29.94024
G1 X100.126 Y69.887 E29.96514
G1 X149.757 Y69.887 E32.04506
G1 X150.46 Y69.897 E32.07452
G1 X151.041 Y69.946 E32.09896
G1 X151.61 Y70.073 E32.12339
G1 X152.157 Y70.277 E32.14786
G1 X152.671 Y70.553 E32.17231
G1 X153.183 Y70.932 E32.199
G1 X153.665 Y71.349 E32.22571
G1 X154.995 Y72.541 E32.30056
G1 X155.496 Y73.001 E32.32906
G1 X155.898 Y73.424 E32.35352
G1 X156.238 Y73.898 E32.37796
G1 X156.51 Y74.414 E32.40241
G1 X156.709 Y74.963 E32.42688
G1 X156.839 Y75.588 E32.45363
G1 X156.915 Y76.173 E32.47836
G1 X157.671 Y82.947 E32.764
G1 X158.007 Y85.613 E32.87661
G1 X158.423 Y88.305 E32.99077
G1 X158.915 Y90.985 E33.10496
G1 X159.476 Y93.614 E33.21761
G1 X160.113 Y96.24 E33.33085
G1 X160.829 Y98.859 E33.44464
G1 X161.617 Y101.453 E33.55825
G1 X162.479 Y104.026 E33.67197
G1 X163.41 Y106.565 E33.7853
G1 X164.414 Y109.08 E33.89879
G1 X165.605 Y111.826 E34.02423
G1 X165.876 Y112.431 E34.05201
G1 X166.078 Y112.978 E34.07644
G1 X166.203 Y113.548 E34.1009
G1 X166.249 Y114.13 E34.12536
G1 X166.215 Y114.712 E34.1498
G1 X166.154 Y115.07 E34.16502
G1 X165.541 Y117.919 E34.28714
G1 X165.059 Y120.511 E34.39763
G1 X164.639 Y123.199 E34.51165
G1 X164.293 Y125.906 E34.62601
G1 X164.028 Y128.583 E34.73875
G1 X163.838 Y131.278 E34.85197
G1 X163.724 Y133.967 E34.96476
G1 X163.687 Y136.696 E35.07914
G1 X163.726 Y139.404 E35.19264
G1 X163.841 Y142.11 E35.30614
G1 X164.032 Y144.797 E35.41903
G1 X164.302 Y147.505 E35.53308
G1 X164.646 Y150.191 E35.64656
G1 X165.064 Y152.853 E35.75949
G1 X165.566 Y155.546 E35.87429
G1 X166.153 Y158.269 E35.99103
G1 X166.237 Y158.846 E36.01546
G1 X166.241 Y159.429 E36.0399
G1 X166.165 Y160.008 E36.06437
G1 X166.011 Y160.571 E36.08883
G1 X165.709 Y161.243 E36.1197
G1 X165.333 Y161.914 E36.15194
G1 X163.51 Y165.071 E36.30472
G1 X163.142 Y165.686 E36.33475
G1 X162.322 Y166.807 E36.39296
G1 X161.735 Y167.555 E36.4328
G1 X160.106 Y169.755 E36.54752
G1 X158.56 Y171.973 E36.66083
G1 X157.093 Y174.209 E36.7729
G1 X155.587 Y176.653 E36.89321
G1 X155.259 Y177.113 E36.91688
G1 X154.58 Y177.943 E36.96182
G1 X153.232 Y179.526 E37.04896
G1 X152.779 Y180.045 E37.07783
G1 X152.367 Y180.458 E37.10227
G1 X151.901 Y180.81 E37.12675
G1 X150.677 Y181.47 E37.18503
G1 X146.625 Y183.484 E37.37465
G1 X145.991 Y183.788 E37.40412
G1 X145.189 Y184.078 E37.43986
G1 X144.296 Y184.302 E37.47844
G1 X141.968 Y184.848 E37.57865
G1 X141.283 Y184.999 E37.60805
G1 X140.437 Y185.098 E37.64374
G1 X139.525 Y185.113 E37.68197
G1 X110.272 Y185.108 E38.9079
G1 X109.595 Y185.099 E38.93627
G1 X108.744 Y185.001 E38.97217
G1 X107.839 Y184.803 E39.01099
G1 X105.554 Y184.266 E39.10936
G1 X104.845 Y184.089 E39.13999
G1 X104.044 Y183.801 E39.17566
G1 X103.226 Y183.411 E39.21364
G1 X99.178 Y181.398 E39.4031
G1 X98.51 Y181.054 E39.43458
G1 X98.01 Y180.752 E39.45906
G1 X97.557 Y180.385 E39.4835
G1 X96.65 Y179.388 E39.53998
G1 X95.233 Y177.721 E39.63167
G1 X94.763 Y177.15 E39.66266
G1 X94.416 Y176.662 E39.68776
G1 X93.8 Y175.652 E39.73734
G1 X92.324 Y173.313 E39.85324
G1 X90.823 Y171.077 E39.9661
G1 X89.237 Y168.857 E40.08044
G1 X87.568 Y166.652 E40.19634
G1 X87.139 Y166.096 E40.22577
G1 X86.855 Y165.68 E40.24687
G1 X86.453 Y165.009 E40.27965
G1 X84.61 Y161.813 E40.43427
G1 X84.284 Y161.224 E40.46248
G1 X84.037 Y160.695 E40.48694
G1 X83.865 Y160.138 E40.51138
G1 X83.77 Y159.562 E40.53584
G1 X83.755 Y158.979 E40.56028
G1 X83.846 Y158.264 E40.59049
G1 X84.459 Y155.415 E40.71261
G1 X84.941 Y152.823 E40.8231
G1 X85.361 Y150.133 E40.9372
G1 X85.707 Y147.428 E41.05148
G1 X85.973 Y144.744 E41.16451
G1 X86.162 Y142.056 E41.27744
G1 X86.276 Y139.345 E41.39115
G1 X86.313 Y136.635 E41.50473
G1 X86.274 Y133.909 E41.61899
G1 X86.158 Y131.214 E41.73203
G1 X85.967 Y128.524 E41.84505
G1 X85.696 Y125.813 E41.95923
G1 X85.354 Y123.14 E42.07216
G1 X84.933 Y120.467 E42.18556
G1 X84.44 Y117.821 E42.29836
G1 X83.846 Y115.062 E42.41663
G1 X83.763 Y114.484 E42.4411
G1 X83.759 Y113.901 E42.46553
G1 X83.835 Y113.323 E42.48996
G1 X83.989 Y112.76 E42.51442
G1 X85.523 Y109.228 E42.6758
G1 X86.553 Y106.655 E42.79195
G1 X87.474 Y104.156 E42.90356
G1 X88.333 Y101.607 E43.01629
G1 X89.126 Y99.008 E43.13016
G1 X89.843 Y96.398 E43.24359
G1 X90.49 Y93.753 E43.35771
G1 X91.058 Y91.107 E43.47112
G1 X91.551 Y88.448 E43.58445
G1 X91.97 Y85.77 E43.69805
G1 X92.328 Y82.947 E43.8173
G1 X93.069 Y76.314 E44.097
G0 F3600 X93.569 Y76.377
G1 F1800 X93.658 Y75.67 E44.12687
G1 X93.766 Y75.133 E44.14982
G1 X93.951 Y74.617 E44.17279
G1 X94.209 Y74.134 E44.19574
G1 X94.534 Y73.693 E44.2187
G1 X95.207 Y73.034 E44.25817
G1 X96.634 Y71.758 E44.3384
G1 X97.154 Y71.31 E44.36716
G1 X97.594 Y70.984 E44.39011
G1 X98.077 Y70.725 E44.41308
G1 X98.592 Y70.539 E44.43603
G1 X99.129 Y70.43 E44.45899
G1 X100.061 Y70.392 E44.49808
G1 X149.749 Y70.391 E46.58039
G1 X150.452 Y70.401 E46.60986
G1 X150.998 Y70.449 E46.63283
G1 X151.531 Y70.576 E46.65579
G1 X152.04 Y70.778 E46.67874
G1 X152.514 Y71.053 E46.7017
G1 X153.277 Y71.68 E46.74309
G1 X154.654 Y72.912 E46.82052
