;FLAVOR:Marlin
;TIME:5894
;Filament used: 5.11943m
;Layer height: 0.15
;MINX:82.745
;MINY:67.463
;MINZ:0.2
;MAXX:167.254
;MAXY:187.537
;MAXZ:8
;Generated with Cura_SteamEngine 5.0.0
M140 S70
M105
M190 S70
M104 S210
M105
M109 S210
M82 ;absolute extrusion mode
G21 ;metric values
G90 ;absolute positioning
M82 ;set extruder to absolute mode
M107 ;start with the fan off
G28 X0 Y0 ;move X/Y to min endstops
M300 S1318 P266
G28 Z0 ;move Z to min endstops
G0 Z0.2
G92 E0 ;zero the extruded length
G1 X40 E25 F400 ; Extrude 25mm of filament in a 4cm line. Reduce speed (F) if you have a nozzle smaller than 0.4mm!
G92 E0 ;zero the extruded length again
G1 E-1 F500 ; Retract a little
G1 X80 F4000 ; Quickly wipe away from the filament line
M117 ; Printing…
G5
G92 E0
G92 E0
G1 F1500 E-6.5
;LAYER_COUNT:53
;LAYER:0
M107
G0 F3600 X91.076 Y71.912 Z0.2
G0 X89.406 Y76.764
;TYPE:SKIRT
G1 F1500 E0
G1 F1800 X90.116 Y74.182 E0.11222
G1 X90.251 Y73.664 E0.13466
G1 X90.453 Y73.048 E0.16182
G1 X90.73 Y72.461 E0.18902
G1 X91.076 Y71.912 E0.21622
G1 X91.546 Y71.347 E0.24702
G1 X91.949 Y70.929 E0.27135
G1 X93.446 Y69.433 E0.36004
G1 X93.931 Y68.962 E0.38838
G1 X94.423 Y68.539 E0.41557
G1 X94.964 Y68.181 E0.44276
G1 X95.545 Y67.891 E0.46997
G1 X96.157 Y67.675 E0.49717
G1 X96.79 Y67.536 E0.52433
G1 X97.507 Y67.474 E0.55449
G1 X98.159 Y67.463 E0.58181
G1 X151.696 Y67.463 E2.82543
G1 X152.472 Y67.474 E2.85795
G1 X153.119 Y67.523 E2.88515
G1 X153.755 Y67.651 E2.91233
G1 X154.371 Y67.857 E2.93955
G1 X154.956 Y68.136 E2.96672
G1 X155.503 Y68.486 E2.99393
G1 X156.024 Y68.921 E3.02237
G1 X156.439 Y69.317 E3.04641
G1 X157.974 Y70.854 E3.13745
G1 X158.449 Y71.348 E3.16617
G1 X158.869 Y71.842 E3.19334
G1 X159.226 Y72.385 E3.22057
G1 X159.512 Y72.967 E3.24775
G1 X159.74 Y73.634 E3.27729
G1 X160.07 Y74.866 E3.33074
G1 X160.821 Y77.51 E3.44593
G1 X161.63 Y80.088 E3.55916
G1 X162.504 Y82.611 E3.67106
G1 X163.446 Y85.102 E3.78267
G1 X164.463 Y87.581 E3.89496
G1 X165.561 Y90.051 E4.00824
G1 X166.733 Y92.516 E4.12262
G1 X166.978 Y93.117 E4.14982
G1 X167.148 Y93.743 E4.177
G1 X167.24 Y94.385 E4.20418
G1 X167.252 Y95.034 E4.23139
G1 X167.139 Y95.916 E4.26865
G1 X166.531 Y98.738 E4.38963
G1 X166.054 Y101.308 E4.49917
G1 X165.637 Y103.974 E4.61226
G1 X165.294 Y106.66 E4.72573
G1 X165.034 Y109.291 E4.83653
G1 X164.843 Y111.988 E4.94984
G1 X164.731 Y114.658 E5.06183
G1 X164.694 Y117.33 E5.17382
G1 X164.733 Y120.001 E5.28577
G1 X164.847 Y122.673 E5.39785
G1 X165.038 Y125.366 E5.51099
G1 X165.304 Y128.034 E5.62335
G1 X165.644 Y130.68 E5.73515
G1 X166.059 Y133.322 E5.84723
G1 X166.552 Y135.968 E5.96003
G1 X167.139 Y138.694 E6.07689
G1 X167.236 Y139.336 E6.1041
G1 X167.254 Y139.984 E6.13126
G1 X167.192 Y140.63 E6.15846
G1 X167.05 Y141.264 E6.18569
G1 X166.85 Y141.833 E6.21096
G1 X166.5 Y142.671 E6.24902
G1 X165.514 Y145.131 E6.36009
G1 X164.575 Y147.676 E6.47377
G1 X163.719 Y150.22 E6.58626
G1 X162.937 Y152.775 E6.69823
G1 X162.223 Y155.376 E6.81127
G1 X161.591 Y157.963 E6.92287
G1 X161.03 Y160.569 E7.03459
G1 X160.54 Y163.213 E7.14728
G1 X159.945 Y167.198 E7.31613
G1 X159.872 Y167.759 E7.33984
G1 X159.749 Y168.396 E7.36703
G1 X159.549 Y169.013 E7.39421
G1 X159.274 Y169.601 E7.42141
G1 X158.751 Y170.385 E7.46091
G1 X158.37 Y170.856 E7.4863
G1 X150.072 Y180.725 E8.02665
G1 X149.622 Y181.243 E8.05541
G1 X149.167 Y181.706 E8.08261
G1 X148.659 Y182.109 E8.10979
G1 X148.121 Y182.438 E8.13622
G1 X147.665 Y182.678 E8.15781
G1 X139.52 Y186.723 E8.53892
G1 X138.941 Y187.001 E8.56584
G1 X138.34 Y187.245 E8.59302
G1 X137.713 Y187.414 E8.62024
G1 X136.756 Y187.519 E8.66058
G1 X135.719 Y187.537 E8.70405
G1 X113.983 Y187.536 E9.61496
G1 X113.295 Y187.526 E9.64379
G1 X112.648 Y187.477 E9.67098
G1 X112.012 Y187.349 E9.69817
G1 X111.122 Y187.022 E9.73791
G1 X110.215 Y186.593 E9.77996
G1 X102.509 Y182.763 E10.14059
G1 X101.913 Y182.452 E10.16876
G1 X101.357 Y182.117 E10.19596
G1 X100.847 Y181.717 E10.22312
G1 X100.424 Y181.295 E10.24816
G1 X100.088 Y180.915 E10.26942
G1 X91.707 Y170.947 E10.81519
G1 X91.271 Y170.413 E10.84408
G1 X90.893 Y169.886 E10.87126
G1 X90.582 Y169.316 E10.89847
G1 X90.343 Y168.713 E10.92566
G1 X90.132 Y167.79 E10.96534
G1 X89.781 Y165.209 E11.0745
G1 X89.352 Y162.582 E11.18605
G1 X88.84 Y159.928 E11.29932
G1 X88.255 Y157.296 E11.41231
G1 X87.616 Y154.758 E11.52199
G1 X86.879 Y152.147 E11.63569
G1 X86.073 Y149.574 E11.74869
G1 X85.202 Y147.047 E11.8607
G1 X84.247 Y144.511 E11.97426
G1 X83.452 Y142.55 E12.06294
G1 X83.147 Y141.817 E12.09621
G1 X82.935 Y141.204 E12.1234
G1 X82.8 Y140.569 E12.1506
G1 X82.745 Y139.923 E12.17777
G1 X82.769 Y139.274 E12.20499
G1 X82.861 Y138.686 E12.22993
G1 X83.469 Y135.864 E12.35091
G1 X83.946 Y133.294 E12.46045
G1 X84.363 Y130.628 E12.57354
G1 X84.706 Y127.942 E12.68701
G1 X84.966 Y125.311 E12.79781
G1 X85.157 Y122.613 E12.91116
G1 X85.269 Y119.936 E13.02345
G1 X85.306 Y117.257 E13.13573
G1 X85.267 Y114.601 E13.24705
G1 X85.153 Y111.929 E13.35913
G1 X84.961 Y109.229 E13.47256
G1 X84.695 Y106.563 E13.58484
G1 X84.356 Y103.921 E13.69647
G1 X83.937 Y101.257 E13.80949
G1 X83.448 Y98.633 E13.92135
G1 X82.861 Y95.909 E14.03812
G1 X82.764 Y95.268 E14.06529
G1 X82.746 Y94.619 E14.0925
G1 X82.808 Y93.973 E14.1197
G1 X82.949 Y93.34 E14.14687
G1 X83.274 Y92.495 E14.18482
G1 X83.636 Y91.751 E14.21949
G1 X84.771 Y89.328 E14.33162
G1 X85.836 Y86.879 E14.44354
G1 X86.844 Y84.367 E14.55697
G1 X87.762 Y81.877 E14.66818
G1 X88.621 Y79.329 E14.78087
G1 X89.406 Y76.764 E14.89329
G1 F1500 E8.39329
G0 F3600 X88.241 Y82.032
G1 F1500 E14.89329
G1 F1800 X89.105 Y79.467 E15.00671
G1 X89.892 Y76.897 E15.11935
G1 X90.605 Y74.306 E15.23197
G1 X90.739 Y73.792 E15.25423
G1 X90.933 Y73.206 E15.2801
G1 X91.201 Y72.65 E15.30597
G1 X91.539 Y72.134 E15.33182
G1 X91.91 Y71.696 E15.35587
G1 X92.305 Y71.285 E15.37976
G1 X93.797 Y69.794 E15.46816
G1 X94.282 Y69.323 E15.49649
G1 X94.752 Y68.923 E15.52236
G1 X95.269 Y68.587 E15.5482
G1 X95.825 Y68.32 E15.57404
G1 X96.412 Y68.128 E15.59993
G1 X97.018 Y68.013 E15.62578
G1 X98.074 Y67.968 E15.67007
G1 X151.764 Y67.967 E17.9201
G1 X152.465 Y67.977 E17.94948
G1 X153.08 Y68.026 E17.97533
G1 X153.684 Y68.154 E18.00121
G1 X154.266 Y68.359 E18.02707
G1 X154.816 Y68.637 E18.05289
G1 X155.327 Y68.984 E18.07878
G1 X155.994 Y69.587 E18.11646
G1 X157.611 Y71.203 E18.21227
G1 X158.086 Y71.697 E18.24099
G1 X158.484 Y72.169 E18.26686
G1 X158.818 Y72.688 E18.29272
G1 X159.081 Y73.245 E18.31854
G1 X159.253 Y73.765 E18.34149
G1 X159.585 Y75.003 E18.39521
G1 X160.339 Y77.66 E18.51095
G1 X161.148 Y80.235 E18.62407
G1 X162.031 Y82.785 E18.73716
G1 X162.974 Y85.278 E18.84886
G1 X164.012 Y87.808 E18.96346
G1 X165.096 Y90.246 E19.07528
G1 X166.279 Y92.735 E19.19077
G1 X166.511 Y93.307 E19.21663
G1 X166.667 Y93.904 E19.24249
G1 X166.744 Y94.516 E19.26834
G1 X166.742 Y95.133 E19.2942
G1 X166.646 Y95.81 E19.32286
G1 X166.043 Y98.611 E19.44293
G1 X165.554 Y101.243 E19.55512
G1 X165.138 Y103.903 E19.66795
G1 X164.796 Y106.582 E19.78113
G1 X164.53 Y109.267 E19.8942
G1 X164.342 Y111.933 E20.00621
G1 X164.228 Y114.629 E20.11929
G1 X164.19 Y117.365 E20.23396
G1 X164.229 Y119.994 E20.34415
G1 X164.345 Y122.723 E20.45862
G1 X164.536 Y125.415 E20.57172
G1 X164.802 Y128.077 E20.68383
G1 X165.146 Y130.756 E20.79702
G1 X165.563 Y133.416 E20.90986
G1 X166.056 Y136.06 E21.02257
G1 X166.646 Y138.8 E21.14003
G1 X166.737 Y139.411 E21.16592
G1 X166.748 Y140.028 E21.19178
G1 X166.679 Y140.641 E21.21763
G1 X166.531 Y141.24 E21.24349
G1 X165.027 Y144.993 E21.41293
G1 X164.099 Y147.51 E21.52535
G1 X163.244 Y150.05 E21.63767
G1 X162.451 Y152.642 E21.75126
G1 X161.743 Y155.22 E21.8633
G1 X161.09 Y157.893 E21.97862
G1 X160.536 Y160.469 E22.08904
G1 X160.046 Y163.106 E22.20144
G1 X159.439 Y167.175 E22.37385
G1 X159.372 Y167.694 E22.39578
G1 X159.254 Y168.299 E22.42161
G1 X159.057 Y168.884 E22.44748
G1 X158.787 Y169.439 E22.47335
G1 X158.359 Y170.069 E22.50526
G1 X157.984 Y170.532 E22.53023
G1 X149.691 Y180.394 E23.07023
G1 X149.241 Y180.912 E23.09899
G1 X148.807 Y181.351 E23.12486
G1 X148.32 Y181.73 E23.15072
G1 X147.884 Y181.993 E23.17206
G1 X147.441 Y182.227 E23.19305
G1 X139.302 Y186.269 E23.57389
G1 X138.723 Y186.547 E23.6008
G1 X138.151 Y186.777 E23.62664
G1 X137.553 Y186.932 E23.65253
G1 X136.747 Y187.015 E23.68648
G1 X135.719 Y187.033 E23.72957
G1 X113.991 Y187.032 E24.64014
G1 X113.303 Y187.022 E24.66898
G1 X112.688 Y186.974 E24.69483
G1 X112.084 Y186.846 E24.72071
G1 X111.337 Y186.567 E24.75412
G1 X110.439 Y186.142 E24.79576
G1 X102.742 Y182.317 E25.15596
G1 X102.146 Y182.006 E25.18413
G1 X101.619 Y181.685 E25.20999
G1 X101.137 Y181.3 E25.23584
G1 X100.57 Y180.702 E25.27038
G1 X92.098 Y170.628 E25.822
G1 X91.662 Y170.094 E25.85089
G1 X91.303 Y169.592 E25.87676
G1 X91.013 Y169.047 E25.90263
G1 X90.795 Y168.47 E25.92848
G1 X90.631 Y167.723 E25.96053
G1 X90.279 Y165.132 E26.07011
G1 X89.845 Y162.477 E26.18285
G1 X89.334 Y159.829 E26.29587
G1 X88.751 Y157.202 E26.40864
G1 X88.096 Y154.604 E26.52092
G1 X87.361 Y151.998 E26.6344
G1 X86.549 Y149.408 E26.74815
G1 X85.676 Y146.874 E26.86047
G1 X84.726 Y144.352 E26.97341
G1 X83.935 Y142.401 E27.06163
G1 X83.612 Y141.624 E27.0969
G1 X83.413 Y141.04 E27.12275
G1 X83.29 Y140.435 E27.14863
G1 X83.247 Y139.819 E27.1745
G1 X83.284 Y139.204 E27.20032
G1 X83.354 Y138.792 E27.21784
G1 X83.957 Y135.991 E27.33791
G1 X84.448 Y133.349 E27.45053
G1 X84.863 Y130.689 E27.56335
G1 X85.204 Y128.016 E27.67628
G1 X85.471 Y125.326 E27.78956
G1 X85.658 Y122.669 E27.90119
G1 X85.772 Y119.957 E28.01494
G1 X85.81 Y117.237 E28.12894
G1 X85.771 Y114.608 E28.23913
G1 X85.654 Y111.87 E28.35398
G1 X85.464 Y109.186 E28.46674
G1 X85.197 Y106.513 E28.57932
G1 X84.854 Y103.841 E28.69221
G1 X84.435 Y101.175 E28.80531
G1 X83.945 Y98.547 E28.91734
G1 X83.354 Y95.803 E29.03497
G1 X83.263 Y95.193 E29.06082
G1 X83.252 Y94.576 E29.08668
G1 X83.321 Y93.963 E29.11253
G1 X83.469 Y93.364 E29.13839
G1 X83.727 Y92.716 E29.16762
G1 X84.089 Y91.972 E29.20229
G1 X85.232 Y89.532 E29.31521
G1 X86.315 Y87.04 E29.42908
G1 X87.297 Y84.591 E29.53966
G1 X88.241 Y82.032 E29.65397
G1 F1500 E23.15397
G0 F3600 X86.762 Y87.276
G1 F1500 E29.65397
G1 F1800 X87.784 Y84.73 E29.76894
G1 X88.718 Y82.198 E29.88204
G1 X89.584 Y79.627 E29.99573
G1 X90.373 Y77.049 E30.10871
G1 X91.107 Y74.381 E30.22468
G1 X91.412 Y73.365 E30.26913
G1 X91.671 Y72.843 E30.29355
G1 X92 Y72.361 E30.31801
G1 X92.599 Y71.706 E30.35521
G1 X94.148 Y70.156 E30.44704
G1 X94.633 Y69.685 E30.47537
G1 X95.079 Y69.308 E30.49985
G1 X95.571 Y68.996 E30.52426
G1 X96.102 Y68.753 E30.54874
G1 X96.661 Y68.586 E30.57319
G1 X97.525 Y68.482 E30.60965
G1 X98.159 Y68.471 E30.63623
G1 X151.757 Y68.471 E32.8824
G1 X152.458 Y68.481 E32.91178
G1 X153.039 Y68.53 E32.93622
G1 X153.609 Y68.657 E32.96069
G1 X154.155 Y68.861 E32.98512
G1 X154.669 Y69.137 E33.00957
G1 X155.33 Y69.652 E33.04468
G1 X155.726 Y70.03 E33.06762
G1 X157.248 Y71.552 E33.15783
G1 X157.723 Y72.046 E33.18655
G1 X158.097 Y72.494 E33.21101
G1 X158.407 Y72.988 E33.23545
G1 X158.647 Y73.52 E33.2599
G1 X158.767 Y73.895 E33.27641
G1 X159.117 Y75.2 E33.33303
G1 X159.855 Y77.801 E33.44633
G1 X160.665 Y80.381 E33.55966
G1 X161.554 Y82.948 E33.6735
G1 X162.519 Y85.498 E33.78776
G1 X163.535 Y87.976 E33.9
G1 X164.647 Y90.477 E34.01471
G1 X165.825 Y92.954 E34.12965
G1 X166.042 Y93.496 E34.15412
G1 X166.183 Y94.062 E34.17856
G1 X166.246 Y94.642 E34.20301
G1 X166.228 Y95.225 E34.22746
G1 X166.154 Y95.704 E34.24777
G1 X165.541 Y98.553 E34.3699
G1 X165.059 Y101.145 E34.48038
G1 X164.639 Y103.833 E34.5944
G1 X164.293 Y106.54 E34.70877
G1 X164.028 Y109.217 E34.8215
G1 X163.838 Y111.912 E34.93472
G1 X163.724 Y114.601 E35.04752
G1 X163.687 Y117.33 E35.16189
G1 X163.726 Y120.038 E35.27539
G1 X163.841 Y122.744 E35.3889
G1 X164.032 Y125.431 E35.50179
G1 X164.302 Y128.139 E35.61583
G1 X164.646 Y130.825 E35.72932
G1 X165.064 Y133.487 E35.84224
G1 X165.558 Y136.138 E35.95525
G1 X166.154 Y138.906 E36.07391
G1 X166.237 Y139.484 E36.09838
G1 X166.241 Y140.067 E36.12282
G1 X166.165 Y140.646 E36.14729
G1 X165.92 Y141.445 E36.18231
G1 X165.593 Y142.227 E36.21783
G1 X164.561 Y144.799 E36.33397
G1 X163.619 Y147.355 E36.44813
G1 X162.769 Y149.88 E36.55979
G1 X161.968 Y152.5 E36.6746
G1 X161.25 Y155.114 E36.7882
G1 X160.609 Y157.738 E36.9014
G1 X160.041 Y160.376 E37.01449
G1 X159.545 Y163.05 E37.12846
G1 X158.952 Y167.02 E37.29668
G1 X158.873 Y167.629 E37.32242
G1 X158.758 Y168.201 E37.34687
G1 X158.567 Y168.752 E37.37131
G1 X158.301 Y169.272 E37.39579
G1 X157.966 Y169.753 E37.42035
G1 X157.599 Y170.207 E37.44482
G1 X149.311 Y180.064 E37.98452
G1 X148.861 Y180.582 E38.01327
G1 X148.449 Y180.995 E38.03772
G1 X147.985 Y181.348 E38.06215
G1 X147.324 Y181.72 E38.09394
G1 X139.084 Y185.814 E38.47953
G1 X138.505 Y186.092 E38.50645
G1 X137.963 Y186.308 E38.5309
G1 X137.396 Y186.448 E38.55538
G1 X136.738 Y186.511 E38.58308
G1 X135.719 Y186.529 E38.62579
G1 X113.998 Y186.529 E39.53607
G1 X113.31 Y186.519 E39.5649
G1 X112.729 Y186.47 E39.58934
G1 X112.159 Y186.343 E39.61381
G1 X111.553 Y186.111 E39.64101
G1 X110.664 Y185.69 E39.68223
G1 X102.975 Y181.87 E40.04203
G1 X102.379 Y181.559 E40.07021
G1 X101.882 Y181.254 E40.09464
G1 X101.43 Y180.884 E40.11912
G1 X100.946 Y180.366 E40.14883
G1 X92.488 Y170.309 E40.69953
G1 X92.052 Y169.775 E40.72843
G1 X91.715 Y169.299 E40.75287
G1 X91.446 Y168.781 E40.77733
G1 X91.25 Y168.232 E40.80176
G1 X91.131 Y167.655 E40.82645
G1 X90.778 Y165.059 E40.93624
G1 X90.344 Y162.4 E41.04915
G1 X89.83 Y159.737 E41.16281
G1 X89.239 Y157.076 E41.27704
G1 X88.586 Y154.483 E41.3891
G1 X87.842 Y151.849 E41.50381
G1 X87.035 Y149.273 E41.61693
G1 X86.153 Y146.713 E41.73041
G1 X85.185 Y144.145 E41.84542
G1 X84.4 Y142.207 E41.93304
G1 X84.077 Y141.43 E41.96831
G1 X83.891 Y140.877 E41.99276
G1 X83.782 Y140.304 E42.0172
G1 X83.752 Y139.722 E42.04163
G1 X83.846 Y138.898 E42.07638
G1 X84.459 Y136.049 E42.19851
G1 X84.941 Y133.457 E42.309
G1 X85.361 Y130.767 E42.42309
G1 X85.707 Y128.062 E42.53738
G1 X85.973 Y125.378 E42.65041
G1 X86.162 Y122.69 E42.76334
G1 X86.276 Y119.979 E42.87705
G1 X86.313 Y117.269 E42.99063
G1 X86.274 Y114.543 E43.10488
G1 X86.158 Y111.848 E43.21793
G1 X85.967 Y109.158 E43.33094
G1 X85.696 Y106.447 E43.44512
G1 X85.354 Y103.774 E43.55805
G1 X84.933 Y101.101 E43.67145
G1 X84.434 Y98.42 E43.78574
G1 X83.847 Y95.697 E43.90247
G1 X83.763 Y95.12 E43.92691
G1 X83.759 Y94.536 E43.95138
G1 X83.835 Y93.958 E43.97582
G1 X83.989 Y93.395 E44.00028
G1 X84.521 Y92.234 E44.0538
G1 X85.699 Y89.722 E44.17007
G1 X86.762 Y87.276 E44.28184
G0 F3600 X86.147 Y89.955
G1 F1800 X87.234 Y87.453 E44.39616
G1 X88.25 Y84.923 E44.51042
G1 X89.198 Y82.352 E44.62525
G1 X90.059 Y79.798 E44.7382
G1 X90.849 Y77.215 E44.8514
G1 X91.592 Y74.515 E44.96876
G1 X91.891 Y73.527 E45.01202
G1 X92.141 Y73.04 E45.03496
G1 X92.638 Y72.394 E45.06911
G1 X93.018 Y71.998 E45.09211
G1 X94.499 Y70.518 E45.17986
G1 X94.984 Y70.047 E45.20819
G1 X95.404 Y69.695 E45.23116
G1 X95.871 Y69.407 E45.25415
G1 X96.374 Y69.191 E45.27709
G1 X96.903 Y69.05 E45.30003
G1 X97.534 Y68.986 E45.32661
G1 X98.159 Y68.975 E45.35281
G1 X151.75 Y68.975 E47.59869
G1 X152.451 Y68.985 E47.62807
G1 X152.996 Y69.033 E47.651
G1 X153.529 Y69.16 E47.67396
G1 X154.038 Y69.363 E47.69693
G1 X154.512 Y69.637 E47.71987
G1 X154.983 Y70.017 E47.74523
G1 X155.37 Y70.386 E47.76764
G1 X156.884 Y71.902 E47.85743
G1 X157.359 Y72.396 E47.88615
G1 X157.709 Y72.817 E47.90909
G1 X157.994 Y73.285 E47.93206
G1 X158.28 Y74.026 E47.96534
G1 X158.629 Y75.328 E48.02183
G1 X159.374 Y77.951 E48.13611
G1 X160.193 Y80.558 E48.25062
G1 X161.076 Y83.11 E48.36379
G1 X162.039 Y85.655 E48.47783
G1 X163.079 Y88.19 E48.59266
G1 X164.181 Y90.669 E48.70635
G1 X165.371 Y93.174 E48.82257
G1 X165.573 Y93.683 E48.84552
G1 X165.698 Y94.216 E48.86846
G1 X165.745 Y94.762 E48.89143
G1 X165.711 Y95.309 E48.9144
G1 X165.661 Y95.598 E48.92669
G1 X165.052 Y98.426 E49.04792
G1 X164.561 Y101.068 E49.16054
G1 X164.141 Y103.756 E49.27455
G1 X163.796 Y106.458 E49.38871
G1 X163.527 Y109.167 E49.50279
G1 X163.335 Y111.881 E49.61681
G1 X163.22 Y114.609 E49.73124
G1 X163.183 Y117.323 E49.84499
