;FLAVOR:Marlin
;TIME:5738
;Filament used: 4.98743m
;Layer height: 0.15
;MINX:82.743
;MINY:68.879
;MINZ:0.2
;MAXX:167.254
;MAXY:186.12
;MAXZ:8
;Generated with Cura_SteamEngine 5.0.0
M140 S70
M105
M190 S70
M104 S210
M105
M109 S210
M82 ;absolute extrusion mode
G21 ;metric values
G90 ;absolute positioning
M82 ;set extruder to absolute mode
M107 ;start with the fan off
G28 X0 Y0 ;move X/Y to min endstops
M300 S1318 P266
G28 Z0 ;move Z to min endstops
G0 Z0.2
G92 E0 ;zero the extruded length
G1 X40 E25 F400 ; Extrude 25mm of filament in a 4cm line. Reduce speed (F) if you have a nozzle smaller than 0.4mm!
G92 E0 ;zero the extruded length again
G1 E-1 F500 ; Retract a little
G1 X80 F4000 ; Quickly wipe away from the filament line
M117 ; Printing…
G5
G92 E0
G92 E0
G1 F1500 E-6.5
;LAYER_COUNT:53
;LAYER:0
M107
G0 F3600 X93.105 Y73.068 Z0.2
G0 X92.071 Y76.172
;TYPE:SKIRT
G1 F1500 E0
G1 F1800 X92.163 Y75.46 E0.03009
G1 X92.286 Y74.823 E0.05727
G1 X92.486 Y74.205 E0.0845
G1 X92.76 Y73.617 E0.11168
G1 X93.105 Y73.068 E0.13886
G1 X93.515 Y72.564 E0.16608
G1 X94.218 Y71.892 E0.20684
G1 X95.648 Y70.613 E0.28724
G1 X96.168 Y70.165 E0.316
G1 X96.684 Y69.772 E0.34319
G1 X97.245 Y69.447 E0.37036
G1 X97.842 Y69.192 E0.39756
G1 X98.466 Y69.013 E0.42477
G1 X99.107 Y68.912 E0.45196
G1 X100.035 Y68.88 E0.49088
G1 X149.696 Y68.879 E2.57206
G1 X150.474 Y68.89 E2.60466
G1 X151.121 Y68.939 E2.63186
G1 X151.757 Y69.067 E2.65904
G1 X152.372 Y69.273 E2.68623
G1 X152.958 Y69.552 E2.71342
G1 X153.505 Y69.902 E2.74064
G1 X154.265 Y70.535 E2.78209
G1 X155.677 Y71.799 E2.86151
G1 X156.178 Y72.259 E2.89001
G1 X156.628 Y72.726 E2.91719
G1 X157.017 Y73.245 E2.94437
G1 X157.339 Y73.808 E2.97155
G1 X157.59 Y74.407 E2.99877
G1 X157.765 Y75.032 E3.02597
G1 X157.905 Y75.964 E3.06547
G1 X158.664 Y82.76 E3.35204
G1 X159.011 Y85.511 E3.46824
G1 X159.418 Y88.146 E3.57998
G1 X159.9 Y90.77 E3.69179
G1 X160.456 Y93.377 E3.8035
G1 X161.088 Y95.98 E3.91575
G1 X161.8 Y98.586 E4.02897
G1 X162.581 Y101.158 E4.14161
G1 X163.426 Y103.677 E4.25296
G1 X164.359 Y106.225 E4.36667
G1 X165.342 Y108.686 E4.47773
G1 X166.506 Y111.371 E4.60037
G1 X166.796 Y112.018 E4.63009
G1 X167.025 Y112.626 E4.65731
G1 X167.177 Y113.256 E4.68447
G1 X167.25 Y113.901 E4.71168
G1 X167.243 Y114.55 E4.73888
G1 X167.139 Y115.282 E4.76986
G1 X166.531 Y118.104 E4.89084
G1 X166.054 Y120.674 E5.00038
G1 X165.637 Y123.34 E5.11347
G1 X165.294 Y126.026 E5.22694
G1 X165.034 Y128.657 E5.33774
G1 X164.843 Y131.354 E5.45105
G1 X164.731 Y134.024 E5.56304
G1 X164.694 Y136.696 E5.67503
G1 X164.733 Y139.367 E5.78698
G1 X164.847 Y142.039 E5.89906
G1 X165.038 Y144.732 E6.0122
G1 X165.304 Y147.4 E6.12456
G1 X165.644 Y150.046 E6.23636
G1 X166.059 Y152.688 E6.34844
G1 X166.551 Y155.326 E6.4609
G1 X167.139 Y158.056 E6.57793
G1 X167.236 Y158.698 E6.60514
G1 X167.254 Y159.346 E6.63231
G1 X167.192 Y159.992 E6.6595
G1 X167.051 Y160.626 E6.68672
G1 X166.833 Y161.237 E6.71391
G1 X166.589 Y161.734 E6.73711
G1 X166.206 Y162.418 E6.76996
G1 X164.375 Y165.589 E6.92342
G1 X164.007 Y166.204 E6.95345
G1 X163.678 Y166.689 E6.97801
G1 X163.076 Y167.48 E7.01967
G1 X162.527 Y168.179 E7.05692
G1 X160.921 Y170.348 E7.17002
G1 X159.402 Y172.527 E7.28134
G1 X157.929 Y174.772 E7.39386
G1 X156.445 Y177.181 E7.51244
G1 X156.04 Y177.75 E7.54171
G1 X155.348 Y178.596 E7.58751
G1 X153.992 Y180.189 E7.67518
G1 X153.539 Y180.708 E7.70405
G1 X153.083 Y181.17 E7.73125
G1 X152.574 Y181.572 E7.75844
G1 X152.002 Y181.917 E7.78643
G1 X151.055 Y182.409 E7.83115
G1 X147.061 Y184.393 E8.01805
G1 X146.427 Y184.697 E8.04751
G1 X145.825 Y184.941 E8.07473
G1 X144.609 Y185.264 E8.12746
G1 X142.187 Y185.832 E8.23172
G1 X141.503 Y185.983 E8.26107
G1 X140.862 Y186.084 E8.28826
G1 X139.608 Y186.12 E8.34084
G1 X110.282 Y186.12 E9.56983
G1 X109.598 Y186.11 E9.59849
G1 X108.951 Y186.061 E9.62569
G1 X107.71 Y185.807 E9.67877
G1 X105.301 Y185.242 E9.78247
G1 X104.596 Y185.065 E9.81293
G1 X103.978 Y184.869 E9.8401
G1 X102.837 Y184.342 E9.89277
G1 X98.716 Y182.294 E10.08562
G1 X98.048 Y181.95 E10.11711
G1 X97.491 Y181.618 E10.14429
G1 X96.978 Y181.22 E10.1715
G1 X96.51 Y180.753 E10.1992
G1 X95.83 Y179.981 E10.24232
G1 X94.455 Y178.362 E10.33133
G1 X93.985 Y177.791 E10.36233
G1 X93.555 Y177.187 E10.3934
G1 X92.947 Y176.19 E10.44234
G1 X91.472 Y173.854 E10.55811
G1 X89.976 Y171.626 E10.67058
G1 X88.436 Y169.469 E10.78165
G1 X86.796 Y167.302 E10.89554
G1 X86.341 Y166.713 E10.92673
G1 X85.99 Y166.198 E10.95285
G1 X85.58 Y165.512 E10.98634
G1 X83.728 Y162.301 E11.14169
G1 X83.402 Y161.712 E11.1699
G1 X83.123 Y161.126 E11.1971
G1 X82.919 Y160.51 E11.22429
G1 X82.791 Y159.874 E11.25148
G1 X82.743 Y159.227 E11.27867
G1 X82.775 Y158.579 E11.30586
G1 X82.861 Y158.052 E11.32823
G1 X83.469 Y155.23 E11.44921
G1 X83.946 Y152.66 E11.55875
G1 X84.363 Y149.994 E11.67184
G1 X84.706 Y147.308 E11.78532
G1 X84.966 Y144.677 E11.89611
G1 X85.157 Y141.979 E12.00946
G1 X85.269 Y139.302 E12.12175
G1 X85.306 Y136.623 E12.23403
G1 X85.267 Y133.967 E12.34535
G1 X85.153 Y131.295 E12.45743
G1 X84.961 Y128.595 E12.57087
G1 X84.695 Y125.929 E12.68315
G1 X84.356 Y123.287 E12.79477
G1 X83.937 Y120.623 E12.90779
G1 X83.448 Y117.999 E13.01965
G1 X82.861 Y115.275 E13.13643
G1 X82.764 Y114.634 E13.16359
G1 X82.746 Y113.985 E13.1908
G1 X82.808 Y113.339 E13.218
G1 X82.949 Y112.706 E13.24518
G1 X83.21 Y111.998 E13.2768
G1 X83.516 Y111.32 E13.30797
G1 X84.597 Y108.83 E13.42173
G1 X85.601 Y106.325 E13.53483
G1 X86.525 Y103.817 E13.64684
G1 X87.368 Y101.311 E13.75764
G1 X88.162 Y98.714 E13.87145
G1 X88.865 Y96.154 E13.98271
G1 X89.509 Y93.526 E14.0961
G1 X90.071 Y90.906 E14.2084
G1 X90.556 Y88.288 E14.31998
G1 X90.972 Y85.627 E14.43285
G1 X91.334 Y82.777 E14.55325
G1 X92.071 Y76.172 E14.83176
G0 F3600 X92.571 Y76.237
G1 F1800 X92.663 Y75.525 E14.86185
G1 X92.782 Y74.919 E14.88773
G1 X92.978 Y74.334 E14.91359
G1 X93.247 Y73.779 E14.93943
G1 X93.587 Y73.264 E14.9653
G1 X94.157 Y72.634 E15.0009
G1 X94.614 Y72.213 E15.02694
G1 X95.976 Y70.995 E15.10351
G1 X96.496 Y70.547 E15.13228
G1 X96.989 Y70.175 E15.15816
G1 X97.526 Y69.87 E15.18404
G1 X98.097 Y69.637 E15.20989
G1 X98.694 Y69.48 E15.23575
G1 X99.524 Y69.393 E15.27073
G1 X100.126 Y69.383 E15.29596
G1 X149.764 Y69.383 E17.37618
G1 X150.467 Y69.393 E17.40564
G1 X151.082 Y69.442 E17.4315
G1 X151.686 Y69.57 E17.45737
G1 X152.268 Y69.775 E17.48323
G1 X152.818 Y70.053 E17.50906
G1 X153.512 Y70.551 E17.54485
G1 X154.001 Y70.974 E17.57195
G1 X155.336 Y72.17 E17.64707
G1 X155.837 Y72.63 E17.67557
G1 X156.264 Y73.076 E17.70145
G1 X156.629 Y73.573 E17.72729
G1 X156.927 Y74.113 E17.75313
G1 X157.152 Y74.688 E17.77901
G1 X157.339 Y75.523 E17.81487
G1 X157.416 Y76.117 E17.83997
G1 X158.164 Y82.823 E18.12275
G1 X158.512 Y85.58 E18.2392
G1 X158.918 Y88.209 E18.35069
G1 X159.412 Y90.895 E18.46514
G1 X159.966 Y93.496 E18.57659
G1 X160.596 Y96.094 E18.68862
G1 X161.322 Y98.75 E18.80401
G1 X162.095 Y101.295 E18.91547
G1 X162.956 Y103.861 E19.0289
G1 X163.88 Y106.386 E19.14158
G1 X164.875 Y108.875 E19.25392
G1 X166.064 Y111.617 E19.37917
G1 X166.336 Y112.224 E19.40704
G1 X166.552 Y112.803 E19.43294
G1 X166.691 Y113.404 E19.45879
G1 X166.75 Y114.018 E19.48464
G1 X166.731 Y114.635 E19.51051
G1 X166.646 Y115.176 E19.53346
G1 X166.043 Y117.977 E19.65353
G1 X165.554 Y120.609 E19.76572
G1 X165.138 Y123.269 E19.87855
G1 X164.796 Y125.948 E19.99173
G1 X164.53 Y128.633 E20.10481
G1 X164.342 Y131.299 E20.21681
G1 X164.228 Y133.995 E20.32989
G1 X164.19 Y136.731 E20.44456
G1 X164.229 Y139.36 E20.55475
G1 X164.345 Y142.089 E20.66922
G1 X164.536 Y144.781 E20.78232
G1 X164.802 Y147.443 E20.89444
G1 X165.146 Y150.122 E21.00763
G1 X165.563 Y152.782 E21.12046
G1 X166.055 Y155.419 E21.23288
G1 X166.646 Y158.162 E21.35047
G1 X166.737 Y158.773 E21.37636
G1 X166.748 Y159.39 E21.40222
G1 X166.679 Y160.003 E21.42807
G1 X166.531 Y160.602 E21.45393
G1 X166.308 Y161.177 E21.47978
G1 X165.804 Y162.106 E21.52407
G1 X163.942 Y165.33 E21.6801
G1 X163.574 Y165.945 E21.71013
G1 X163.277 Y166.384 E21.73234
G1 X162.679 Y167.169 E21.7737
G1 X162.133 Y167.865 E21.81077
G1 X160.522 Y170.04 E21.9242
G1 X158.987 Y172.242 E22.03669
G1 X157.498 Y174.512 E22.15046
G1 X156.016 Y176.917 E22.26885
G1 X155.65 Y177.432 E22.29532
G1 X154.964 Y178.269 E22.34068
G1 X153.612 Y179.858 E22.42811
G1 X153.159 Y180.377 E22.45698
G1 X152.724 Y180.814 E22.48282
G1 X152.236 Y181.192 E22.50869
G1 X151.769 Y181.47 E22.53147
G1 X150.831 Y181.957 E22.57576
G1 X146.843 Y183.939 E22.76239
G1 X146.209 Y184.243 E22.79185
G1 X145.636 Y184.473 E22.81773
G1 X144.486 Y184.775 E22.86756
G1 X142.078 Y185.34 E22.97121
G1 X141.394 Y185.491 E23.00057
G1 X140.784 Y185.585 E23.02643
G1 X139.6 Y185.616 E23.07607
G1 X110.289 Y185.616 E24.30443
G1 X109.605 Y185.606 E24.3331
G1 X108.99 Y185.558 E24.35895
G1 X107.817 Y185.315 E24.40915
G1 X105.424 Y184.754 E24.51215
G1 X104.719 Y184.577 E24.54262
G1 X104.131 Y184.388 E24.5685
G1 X103.054 Y183.887 E24.61828
G1 X98.947 Y181.846 E24.81047
G1 X98.279 Y181.502 E24.84196
G1 X97.75 Y181.185 E24.86781
G1 X97.266 Y180.802 E24.89367
G1 X96.888 Y180.419 E24.91623
G1 X96.214 Y179.655 E24.95892
G1 X94.844 Y178.042 E25.04761
G1 X94.374 Y177.471 E25.0786
G1 X93.986 Y176.925 E25.10667
G1 X93.351 Y175.884 E25.15778
G1 X91.899 Y173.584 E25.27176
G1 X90.402 Y171.355 E25.38429
G1 X88.828 Y169.151 E25.49779
G1 X87.195 Y166.993 E25.6112
G1 X86.74 Y166.404 E25.64239
G1 X86.423 Y165.939 E25.66598
G1 X86.017 Y165.26 E25.69913
G1 X84.169 Y162.057 E25.8541
G1 X83.843 Y161.468 E25.88231
G1 X83.58 Y160.91 E25.90816
G1 X83.391 Y160.323 E25.93401
G1 X83.279 Y159.716 E25.95988
G1 X83.247 Y159.099 E25.98577
G1 X83.295 Y158.484 E26.01162
G1 X83.354 Y158.158 E26.0255
G1 X83.957 Y155.357 E26.14558
G1 X84.448 Y152.715 E26.25819
G1 X84.863 Y150.055 E26.37101
G1 X85.204 Y147.382 E26.48394
G1 X85.471 Y144.692 E26.59723
G1 X85.658 Y142.035 E26.70885
G1 X85.772 Y139.323 E26.82261
G1 X85.81 Y136.603 E26.93661
G1 X85.771 Y133.974 E27.04679
G1 X85.654 Y131.236 E27.16164
G1 X85.464 Y128.552 E27.2744
G1 X85.197 Y125.879 E27.38698
G1 X84.854 Y123.207 E27.49988
G1 X84.435 Y120.541 E27.61298
G1 X83.945 Y117.913 E27.72501
G1 X83.354 Y115.169 E27.84264
G1 X83.263 Y114.559 E27.86849
G1 X83.252 Y113.942 E27.89435
G1 X83.321 Y113.329 E27.9202
G1 X83.469 Y112.73 E27.94606
G1 X83.669 Y112.205 E27.9696
G1 X83.991 Y111.492 E28.00239
G1 X85.064 Y109.019 E28.11536
G1 X86.071 Y106.505 E28.22885
G1 X87.002 Y103.982 E28.34156
G1 X87.85 Y101.46 E28.45306
G1 X88.646 Y98.857 E28.56713
G1 X89.357 Y96.269 E28.67961
G1 X89.999 Y93.646 E28.79278
G1 X90.567 Y90.998 E28.90627
G1 X91.051 Y88.386 E29.0176
G1 X91.471 Y85.697 E29.13166
G1 X91.827 Y82.891 E29.25019
G1 X92.571 Y76.237 E29.53078
G0 F3600 X93.071 Y76.301
G1 F1800 X93.163 Y75.589 E29.56087
G1 X93.277 Y75.017 E29.58531
G1 X93.469 Y74.466 E29.60977
G1 X93.733 Y73.946 E29.63421
G1 X94.067 Y73.467 E29.65868
G1 X94.499 Y73.005 E29.68519
G1 X94.95 Y72.589 E29.7109
G1 X96.305 Y71.377 E29.78709
G1 X96.825 Y70.929 E29.81585
G1 X97.293 Y70.579 E29.84034
G1 X97.803 Y70.296 E29.86478
G1 X98.347 Y70.086 E29.88922
G1 X98.915 Y69.952 E29.91368
G1 X99.532 Y69.897 E29.93964
G1 X100.126 Y69.887 E29.96453
G1 X149.757 Y69.887 E32.04446
G1 X150.46 Y69.897 E32.07392
G1 X151.041 Y69.946 E32.09836
G1 X151.61 Y70.073 E32.12279
G1 X152.157 Y70.277 E32.14726
G1 X152.671 Y70.553 E32.17171
G1 X153.183 Y70.932 E32.1984
G1 X153.665 Y71.349 E32.22511
G1 X154.995 Y72.541 E32.29996
G1 X155.496 Y73.001 E32.32846
G1 X155.898 Y73.424 E32.35292
G1 X156.238 Y73.898 E32.37736
G1 X156.51 Y74.414 E32.40181
G1 X156.709 Y74.963 E32.42628
G1 X156.839 Y75.588 E32.45303
G1 X156.915 Y76.173 E32.47776
G1 X157.671 Y82.947 E32.7634
G1 X158.007 Y85.613 E32.87601
G1 X158.423 Y88.305 E32.99017
G1 X158.915 Y90.985 E33.10436
G1 X159.476 Y93.614 E33.21701
G1 X160.113 Y96.24 E33.33025
G1 X160.829 Y98.859 E33.44404
G1 X161.617 Y101.453 E33.55765
G1 X162.479 Y104.026 E33.67137
G1 X163.41 Y106.565 E33.7847
G1 X164.414 Y109.08 E33.89819
G1 X165.605 Y111.826 E34.02362
G1 X165.876 Y112.431 E34.05141
G1 X166.078 Y112.978 E34.07584
G1 X166.203 Y113.548 E34.1003
G1 X166.249 Y114.13 E34.12476
G1 X166.215 Y114.712 E34.1492
G1 X166.154 Y115.07 E34.16441
G1 X165.541 Y117.919 E34.28654
G1 X165.059 Y120.511 E34.39703
G1 X164.639 Y123.199 E34.51104
G1 X164.293 Y125.906 E34.62541
G1 X164.028 Y128.583 E34.73815
G1 X163.838 Y131.278 E34.85137
G1 X163.724 Y133.967 E34.96416
G1 X163.687 Y136.696 E35.07854
G1 X163.726 Y139.404 E35.19203
G1 X163.841 Y142.11 E35.30554
G1 X164.032 Y144.797 E35.41843
G1 X164.302 Y147.505 E35.53248
G1 X164.646 Y150.191 E35.64596
G1 X165.064 Y152.853 E35.75889
G1 X165.566 Y155.546 E35.87369
G1 X166.153 Y158.269 E35.99043
G1 X166.237 Y158.846 E36.01486
G1 X166.241 Y159.429 E36.03929
G1 X166.165 Y160.008 E36.06377
G1 X166.011 Y160.571 E36.08823
G1 X165.709 Y161.243 E36.1191
G1 X165.333 Y161.914 E36.15134
G1 X163.51 Y165.071 E36.30411
G1 X163.142 Y165.686 E36.33415
G1 X162.322 Y166.807 E36.39235
G1 X161.735 Y167.555 E36.4322
G1 X160.106 Y169.755 E36.54692
G1 X158.56 Y171.973 E36.66023
G1 X157.093 Y174.209 E36.7723
G1 X155.587 Y176.653 E36.89261
G1 X155.259 Y177.113 E36.91628
G1 X154.58 Y177.943 E36.96122
G1 X153.232 Y179.526 E37.04836
G1 X152.779 Y180.045 E37.07723
G1 X152.367 Y180.458 E37.10167
G1 X151.901 Y180.81 E37.12615
G1 X150.677 Y181.47 E37.18442
G1 X146.625 Y183.484 E37.37405
G1 X145.991 Y183.788 E37.40352
G1 X145.189 Y184.078 E37.43926
G1 X144.296 Y184.302 E37.47784
G1 X141.969 Y184.848 E37.57801
G1 X141.285 Y184.999 E37.60736
G1 X140.437 Y185.098 E37.64314
G1 X139.521 Y185.113 E37.68154
G1 X110.297 Y185.113 E38.90625
G1 X109.613 Y185.103 E38.93492
G1 X108.772 Y185.006 E38.9704
G1 X107.854 Y184.806 E39.00977
G1 X105.547 Y184.265 E39.10907
G1 X104.842 Y184.088 E39.13954
G1 X104.047 Y183.802 E39.17494
G1 X103.206 Y183.401 E39.21399
G1 X99.178 Y181.398 E39.40251
G1 X98.51 Y181.054 E39.434
G1 X98.01 Y180.752 E39.45848
G1 X97.557 Y180.385 E39.48291
G1 X96.65 Y179.388 E39.5394
G1 X95.233 Y177.721 E39.63109
G1 X94.763 Y177.15 E39.66208
G1 X94.416 Y176.662 E39.68717
G1 X93.8 Y175.652 E39.73675
G1 X92.324 Y173.313 E39.85266
G1 X90.823 Y171.077 E39.96552
G1 X89.237 Y168.857 E40.07986
G1 X87.568 Y166.652 E40.19575
G1 X87.139 Y166.096 E40.22518
G1 X86.855 Y165.68 E40.24629
G1 X86.453 Y165.009 E40.27907
G1 X84.61 Y161.813 E40.43368
G1 X84.284 Y161.224 E40.46189
G1 X84.037 Y160.695 E40.48636
G1 X83.865 Y160.138 E40.51079
G1 X83.77 Y159.562 E40.53526
G1 X83.755 Y158.979 E40.5597
G1 X83.846 Y158.264 E40.5899
G1 X84.459 Y155.415 E40.71203
G1 X84.941 Y152.823 E40.82252
G1 X85.361 Y150.133 E40.93661
G1 X85.707 Y147.428 E41.0509
G1 X85.973 Y144.744 E41.16393
G1 X86.162 Y142.056 E41.27686
G1 X86.276 Y139.345 E41.39057
G1 X86.313 Y136.635 E41.50415
G1 X86.274 Y133.909 E41.6184
G1 X86.158 Y131.214 E41.73145
G1 X85.967 Y128.524 E41.84446
G1 X85.696 Y125.813 E41.95864
G1 X85.354 Y123.14 E42.07157
G1 X84.933 Y120.467 E42.18497
G1 X84.434 Y117.786 E42.29926
G1 X83.847 Y115.063 E42.41599
G1 X83.763 Y114.486 E42.44043
G1 X83.759 Y113.902 E42.4649
G1 X83.835 Y113.324 E42.48934
G1 X83.989 Y112.761 E42.5138
G1 X85.536 Y109.197 E42.67662
G1 X86.542 Y106.687 E42.78994
G1 X87.466 Y104.179 E42.90195
G1 X88.335 Y101.597 E43.01612
G1 X89.129 Y98.999 E43.12997
G1 X89.841 Y96.408 E43.24258
G1 X90.495 Y93.741 E43.35766
G1 X91.057 Y91.117 E43.47012
G1 X91.551 Y88.45 E43.58379
G1 X91.97 Y85.772 E43.69738
G1 X92.328 Y82.947 E43.81672
G1 X93.071 Y76.301 E44.09697
G0 F3600 X93.571 Y76.366
G1 F1800 X93.663 Y75.654 E44.12706
G1 X93.773 Y75.117 E44.15003
G1 X93.959 Y74.602 E44.17298
G1 X94.219 Y74.119 E44.19597
G1 X94.545 Y73.68 E44.21888
G1 X95.243 Y73.003 E44.25963
G1 X96.634 Y71.758 E44.33786
G1 X97.154 Y71.31 E44.36663
G1 X97.594 Y70.984 E44.38958
G1 X98.077 Y70.725 E44.41255
G1 X98.592 Y70.539 E44.43549
G1 X99.129 Y70.43 E44.45846
G1 X100.061 Y70.392 E44.49755
G1 X149.749 Y70.391 E46.57986
G1 X150.452 Y70.401 E46.60932
G1 X150.998 Y70.449 E46.63229
G1 X151.531 Y70.576 E46.65526
G1 X152.04 Y70.778 E46.67821
G1 X152.514 Y71.053 E46.70117
G1 X153.277 Y71.68 E46.74256
G1 X154.654 Y72.912 E46.81999
