;FLAVOR:Marlin
;TIME:6776
;Filament used: 8.1092m
;Layer height: 0.175
;MINX:58.408
;MINY:104.553
;MINZ:0.2
;MAXX:191.592
;MAXY:217.722
;MAXZ:10
;Generated with Cura_SteamEngine 5.0.0
M140 S70
M105
M190 S70
M104 S210
M105
M109 S210
M82 ;absolute extrusion mode
G21 ;metric values
G90 ;absolute positioning
M82 ;set extruder to absolute mode
M107 ;start with the fan off
G28 X0 Y0 ;move X/Y to min endstops
M300 S1318 P266
G28 Z0 ;move Z to min endstops
G0 Z0.2
G92 E0 ;zero the extruded length
G1 X40 E25 F400 ; Extrude 25mm of filament in a 4cm line. Reduce speed (F) if you have a nozzle smaller than 0.4mm!
G92 E0 ;zero the extruded length again
G1 E-1 F500 ; Retract a little
G1 X80 F4000 ; Quickly wipe away from the filament line
M117 ; Printing…
G5
G92 E0
G92 E0
G1 F1500 E-6.5
;LAYER_COUNT:57
;LAYER:0
M107
G0 F3600 X60.978 Y105.481 Z0.2
G0 X58.408 Y110.841
;TYPE:SKIRT
G1 F1500 E0
G1 F1800 X58.414 Y110.014 E0.03177
G1 X58.459 Y109.379 E0.05623
G1 X58.582 Y108.754 E0.0807
G1 X58.784 Y108.149 E0.1052
G1 X59.059 Y107.574 E0.12968
G1 X59.498 Y106.898 E0.16065
G1 X59.892 Y106.397 E0.18513
G1 X60.346 Y105.95 E0.20961
G1 X60.978 Y105.481 E0.23984
G1 X61.717 Y105.064 E0.27244
G1 X62.311 Y104.832 E0.29694
G1 X62.929 Y104.677 E0.32141
G1 X63.844 Y104.574 E0.35678
G1 X64.278 Y104.555 E0.37347
G1 X185.292 Y104.553 E5.02228
G1 X186.114 Y104.567 E5.05386
G1 X186.749 Y104.618 E5.07833
G1 X187.315 Y104.733 E5.10052
G1 X188.133 Y104.989 E5.13345
G1 X188.708 Y105.264 E5.15793
G1 X189.244 Y105.608 E5.1824
G1 X189.8 Y106.081 E5.21044
G1 X190.416 Y106.744 E5.24521
G1 X190.778 Y107.268 E5.26967
G1 X191.072 Y107.833 E5.29414
G1 X191.321 Y108.526 E5.32243
G1 X191.514 Y109.368 E5.35561
G1 X191.567 Y110.013 E5.38048
G1 X191.586 Y111.067 E5.42097
G1 X191.585 Y210.798 E9.25218
G1 X191.592 Y211.435 E9.27666
G1 X191.586 Y212.262 E9.30843
G1 X191.541 Y212.897 E9.33288
G1 X191.418 Y213.522 E9.35735
G1 X191.216 Y214.127 E9.38186
G1 X190.941 Y214.702 E9.40634
G1 X190.502 Y215.378 E9.4373
G1 X190.108 Y215.879 E9.46179
G1 X189.654 Y216.326 E9.48626
G1 X189.022 Y216.795 E9.5165
G1 X188.283 Y217.212 E9.54909
G1 X187.689 Y217.444 E9.57359
G1 X187.071 Y217.599 E9.59807
G1 X186.156 Y217.702 E9.63344
G1 X185.722 Y217.721 E9.65013
G1 X64.618 Y217.722 E14.30239
G1 X63.886 Y217.709 E14.33052
G1 X63.251 Y217.658 E14.35499
G1 X62.669 Y217.539 E14.37781
G1 X61.851 Y217.28 E14.41077
G1 X61.277 Y217.003 E14.43526
G1 X60.742 Y216.657 E14.45973
G1 X60.199 Y216.194 E14.48715
G1 X59.584 Y215.532 E14.52186
G1 X59.222 Y215.008 E14.54632
G1 X58.928 Y214.443 E14.57079
G1 X58.679 Y213.75 E14.59908
G1 X58.486 Y212.908 E14.63226
G1 X58.433 Y212.261 E14.6572
G1 X58.414 Y211.189 E14.69839
G1 X58.415 Y111.478 E18.52883
G1 X58.408 Y110.841 E18.55331
G0 F3600 X58.87 Y110.845
G1 F1800 X58.876 Y110.018 E18.58508
G1 X58.92 Y109.412 E18.60842
G1 X59.044 Y108.817 E18.63176
G1 X59.244 Y108.244 E18.65508
G1 X59.519 Y107.702 E18.67843
G1 X59.878 Y107.16 E18.7034
G1 X60.256 Y106.684 E18.72675
G1 X60.692 Y106.262 E18.75006
G1 X61.223 Y105.873 E18.77535
G1 X61.938 Y105.471 E18.80686
G1 X62.506 Y105.256 E18.83019
G1 X63.097 Y105.116 E18.85352
G1 X63.884 Y105.034 E18.88392
G1 X64.278 Y105.017 E18.89907
G1 X185.292 Y105.015 E23.54788
G1 X186.106 Y105.029 E23.57915
G1 X186.711 Y105.079 E23.60247
G1 X187.411 Y105.236 E23.63003
G1 X187.987 Y105.429 E23.65337
G1 X188.533 Y105.695 E23.6767
G1 X189.039 Y106.031 E23.70003
G1 X189.476 Y106.411 E23.72228
G1 X190.071 Y107.052 E23.75588
G1 X190.412 Y107.555 E23.77922
G1 X190.684 Y108.098 E23.80255
G1 X190.876 Y108.65 E23.825
G1 X191.061 Y109.464 E23.85707
G1 X191.105 Y110.021 E23.87853
G1 X191.124 Y111.067 E23.91872
G1 X191.123 Y210.804 E27.75017
G1 X191.13 Y211.431 E27.77425
G1 X191.124 Y212.258 E27.80602
G1 X191.08 Y212.864 E27.82937
G1 X190.956 Y213.459 E27.85271
G1 X190.756 Y214.032 E27.87603
G1 X190.481 Y214.574 E27.89938
G1 X190.122 Y215.116 E27.92435
G1 X189.744 Y215.592 E27.9477
G1 X189.308 Y216.014 E27.97101
G1 X188.777 Y216.403 E27.9963
G1 X188.062 Y216.805 E28.02781
G1 X187.494 Y217.02 E28.05114
G1 X186.903 Y217.16 E28.07447
G1 X186.116 Y217.242 E28.10487
G1 X185.722 Y217.259 E28.12002
G1 X64.626 Y217.26 E32.77197
G1 X63.894 Y217.247 E32.8001
G1 X63.289 Y217.197 E32.82342
G1 X62.788 Y217.092 E32.84308
G1 X61.998 Y216.841 E32.87493
G1 X61.453 Y216.572 E32.89827
G1 X60.948 Y216.235 E32.9216
G1 X60.523 Y215.865 E32.94324
G1 X59.929 Y215.224 E32.97682
G1 X59.589 Y214.721 E33.00014
G1 X59.317 Y214.178 E33.02347
G1 X59.124 Y213.626 E33.04593
G1 X58.939 Y212.812 E33.078
G1 X58.895 Y212.253 E33.09954
G1 X58.876 Y211.189 E33.14042
G1 X58.877 Y111.472 E36.9711
G1 X58.87 Y110.845 E36.99518
G0 F3600 X59.332 Y110.848
G1 F1800 X59.338 Y110.021 E37.02696
G1 X59.382 Y109.446 E37.04911
G1 X59.505 Y108.883 E37.07125
G1 X59.705 Y108.343 E37.09337
G1 X60.074 Y107.691 E37.12215
G1 X60.618 Y106.972 E37.15678
G1 X61.036 Y106.576 E37.1789
G1 X61.469 Y106.264 E37.19941
G1 X62.157 Y105.879 E37.22969
G1 X62.698 Y105.68 E37.25184
G1 X63.503 Y105.53 E37.28329
G1 X64.278 Y105.479 E37.31313
G1 X185.292 Y105.477 E41.96194
G1 X186.098 Y105.491 E41.9929
G1 X186.672 Y105.541 E42.01504
G1 X187.293 Y105.683 E42.03951
G1 X187.839 Y105.867 E42.06164
G1 X188.354 Y106.126 E42.08379
G1 X188.828 Y106.453 E42.10591
G1 X189.343 Y106.928 E42.13283
G1 X189.724 Y107.36 E42.15495
G1 X190.043 Y107.84 E42.17709
G1 X190.291 Y108.36 E42.19922
G1 X190.492 Y108.993 E42.22474
G1 X190.607 Y109.558 E42.24689
G1 X190.661 Y110.989 E42.3019
G1 X190.661 Y210.81 E46.13657
G1 X190.668 Y211.428 E46.16031
G1 X190.662 Y212.255 E46.19208
G1 X190.618 Y212.83 E46.21423
G1 X190.495 Y213.393 E46.23637
G1 X190.295 Y213.933 E46.25849
G1 X189.926 Y214.585 E46.28727
G1 X189.382 Y215.304 E46.32191
G1 X188.964 Y215.7 E46.34403
G1 X188.531 Y216.012 E46.36453
G1 X187.843 Y216.397 E46.39482
G1 X187.302 Y216.596 E46.41696
G1 X186.497 Y216.746 E46.44842
G1 X185.722 Y216.797 E46.47826
G1 X64.634 Y216.798 E51.12991
G1 X63.902 Y216.785 E51.15803
G1 X63.328 Y216.735 E51.18016
G1 X62.693 Y216.589 E51.20519
G1 X62.147 Y216.402 E51.22737
G1 X61.633 Y216.142 E51.24949
G1 X61.16 Y215.813 E51.27163
G1 X60.657 Y215.348 E51.29794
G1 X60.276 Y214.917 E51.32004
G1 X59.958 Y214.436 E51.34219
G1 X59.709 Y213.917 E51.36431
G1 X59.508 Y213.283 E51.38986
G1 X59.393 Y212.718 E51.41201
G1 X59.339 Y211.265 E51.46786
G1 X59.339 Y111.466 E55.30169
G1 X59.332 Y110.848 E55.32543
G0 F3600 X59.794 Y110.851
G1 F1800 X59.8 Y110.024 E55.3572
G1 X59.844 Y109.483 E55.37805
G1 X59.967 Y108.954 E55.39891
G1 X60.166 Y108.448 E55.4198
G1 X60.454 Y107.953 E55.4418
G1 X60.979 Y107.262 E55.47514
G1 X61.378 Y106.893 E55.49602
G1 X61.894 Y106.542 E55.51999
G1 X62.375 Y106.288 E55.54089
G1 X62.887 Y106.107 E55.56175
G1 X63.543 Y105.99 E55.58735
G1 X64.278 Y105.941 E55.61564
G1 X185.292 Y105.939 E60.26445
G1 X186.09 Y105.953 E60.29511
G1 X186.63 Y106.002 E60.31594
G1 X187.176 Y106.129 E60.33748
G1 X187.69 Y106.306 E60.35836
G1 X188.172 Y106.556 E60.37922
G1 X188.613 Y106.873 E60.40008
G1 X189.019 Y107.257 E60.42155
G1 X189.377 Y107.666 E60.44243
G1 X189.671 Y108.122 E60.46327
G1 X189.895 Y108.617 E60.48415
G1 X190.047 Y109.117 E60.50422
G1 X190.153 Y109.65 E60.5251
G1 X190.199 Y110.998 E60.57691
G1 X190.199 Y210.817 E64.4115
G1 X190.206 Y211.425 E64.43486
G1 X190.2 Y212.252 E64.46663
G1 X190.156 Y212.793 E64.48748
G1 X190.033 Y213.322 E64.50835
G1 X189.834 Y213.828 E64.52924
G1 X189.546 Y214.323 E64.55124
G1 X189.021 Y215.014 E64.58457
G1 X188.622 Y215.383 E64.60545
G1 X188.106 Y215.734 E64.62942
G1 X187.625 Y215.988 E64.65032
G1 X187.113 Y216.169 E64.67118
G1 X186.457 Y216.286 E64.69678
G1 X185.722 Y216.335 E64.72508
G1 X64.642 Y216.336 E69.37642
G1 X63.91 Y216.323 E69.40455
G1 X63.37 Y216.274 E69.42538
G1 X62.811 Y216.143 E69.44743
G1 X62.298 Y215.965 E69.46829
G1 X61.817 Y215.713 E69.48915
G1 X61.377 Y215.394 E69.51003
G1 X60.982 Y215.019 E69.53095
G1 X60.623 Y214.611 E69.55183
G1 X60.329 Y214.154 E69.5727
G1 X60.105 Y213.659 E69.59358
G1 X59.953 Y213.159 E69.61365
G1 X59.847 Y212.626 E69.63453
G1 X59.801 Y211.257 E69.68715
G1 X59.801 Y111.459 E73.52094
G1 X59.794 Y110.851 E73.54429
G0 F3600 X60.256 Y110.855
G1 F1800 X60.262 Y110.028 E73.57606
G1 X60.306 Y109.521 E73.59561
G1 X60.428 Y109.028 E73.61512
G1 X60.626 Y108.561 E73.63461
G1 X61.019 Y107.947 E73.66261
G1 X61.34 Y107.553 E73.68214
G1 X61.718 Y107.214 E73.70164
G1 X62.14 Y106.934 E73.7211
G1 X62.59 Y106.698 E73.74062
G1 X63.072 Y106.536 E73.76015
G1 X63.582 Y106.451 E73.78001
G1 X64.278 Y106.403 E73.80681
G1 X185.292 Y106.401 E78.45562
G1 X186.081 Y106.415 E78.48594
G1 X186.587 Y106.463 E78.50546
G1 X187.059 Y106.576 E78.52411
G1 X187.538 Y106.744 E78.54361
G1 X187.986 Y106.984 E78.56313
G1 X188.504 Y107.398 E78.58861
G1 X189.027 Y107.97 E78.61838
G1 X189.296 Y108.401 E78.6379
G1 X189.541 Y109.022 E78.66354
G1 X189.699 Y109.74 E78.69178
G1 X189.737 Y111.006 E78.74044
G1 X189.737 Y210.823 E82.57496
G1 X189.744 Y211.421 E82.59793
G1 X189.738 Y212.248 E82.6297
G1 X189.694 Y212.755 E82.64925
G1 X189.572 Y213.248 E82.66876
G1 X189.374 Y213.715 E82.68825
G1 X188.981 Y214.329 E82.71625
G1 X188.66 Y214.723 E82.73577
G1 X188.282 Y215.062 E82.75528
G1 X187.86 Y215.342 E82.77473
G1 X187.41 Y215.578 E82.79425
G1 X186.928 Y215.74 E82.81379
G1 X186.418 Y215.825 E82.83365
G1 X185.722 Y215.873 E82.86045
G1 X64.651 Y215.874 E87.51145
G1 X63.919 Y215.861 E87.53957
G1 X63.413 Y215.813 E87.5591
G1 X62.93 Y215.696 E87.57819
G1 X62.451 Y215.527 E87.5977
G1 X62.005 Y215.285 E87.6172
G1 X61.496 Y214.877 E87.64226
G1 X60.973 Y214.306 E87.672
G1 X60.704 Y213.875 E87.69152
G1 X60.459 Y213.254 E87.71716
G1 X60.301 Y212.536 E87.74541
G1 X60.263 Y211.248 E87.79491
G1 X60.263 Y111.453 E91.62858
G1 X60.256 Y110.855 E91.65155
G1 F1500 E85.15155
;MESH:main-case-body.stl
G0 F3600 X62.828 Y110.857
G0 X63.943 Y110.857
G0 X82.963 Y119.008
G1 F1500 E91.65155
G0 F3600 X83.432 Y119.198
;TYPE:WALL-OUTER
G1 F900 X83.596 Y118.813 E91.66763
G1 X83.861 Y118.473 E91.68419
G1 X84.2 Y118.219 E91.70046
G1 X84.593 Y118.061 E91.71673
G1 X85.017 Y118.009 E91.73314
G1 X85.44 Y118.07 E91.74956
G1 X85.825 Y118.234 E91.76564
G1 X86.165 Y118.499 E91.7822
G1 X86.419 Y118.838 E91.79847
G1 X86.577 Y119.231 E91.81474
G1 X86.629 Y119.655 E91.83115
G1 X86.566 Y120.093 E91.84815
G1 X86.404 Y120.463 E91.86367
G1 X86.139 Y120.803 E91.88023
G1 X85.8 Y121.057 E91.8965
G1 F799.6 X85.381 Y121.277 E91.91696
G1 F721.9 X85.009 Y121.322 E91.93491
G1 F786 X84.907 Y121.27 E91.93994
G1 F877.2 X84.46 Y121.165 E91.95804
G1 F900 X84.175 Y121.042 E91.96997
G1 X83.835 Y120.777 E91.98653
G1 X83.581 Y120.438 E92.0028
G1 X83.437 Y120.097 E92.01702
G1 X83.371 Y119.621 E92.03548
G1 X83.432 Y119.198 E92.0519
G0 F3600 X83.51 Y119.014
G0 X83.038 Y118.823
G0 X83.028 Y146.175
G0 X83.389 Y146.538
G1 F1800 X83.59 Y146.277 E92.06455
G1 X83.718 Y145.977 E92.07708
G1 X83.768 Y145.53 E92.09436
G1 X83.77 Y123.608 E92.9365
G1 X83.835 Y123.173 E92.9534
G1 X84.009 Y122.764 E92.97048
G1 X84.289 Y122.403 E92.98803
G1 X84.649 Y122.133 E93.00531
G1 F1673.2 X85.026 Y121.938 E93.02285
G1 F1493 X85.501 Y121.847 E93.04525
G1 F1593.1 X85.972 Y121.906 E93.06586
G1 F1800 X86.518 Y121.907 E93.08683
G1 X87.426 Y121.906 E93.12171
G1 X122.064 Y121.907 E94.45235
G1 F1599.2 X122.537 Y121.851 E94.47294
G1 F1436.3 X122.936 Y121.902 E94.49231
G1 F1596.2 X123.374 Y122.147 E94.51405
G1 F1800 X123.735 Y122.427 E94.5316
G1 X124.005 Y122.787 E94.54889
G1 X124.173 Y123.204 E94.56616
G1 X124.23 Y123.806 E94.58939
G1 X124.231 Y194.241 E97.29518
G1 X124.231 Y196.873 E97.39629
G1 X124.231 Y198.606 E97.46286
G1 X124.165 Y199.103 E97.48212
G1 X123.992 Y199.512 E97.49918
G1 X123.711 Y199.873 E97.51676
G1 X123.351 Y200.143 E97.53404
G1 F1673.2 X122.974 Y200.339 E97.5516
G1 F1493 X122.512 Y200.428 E97.57339
G1 F1593.1 X122.028 Y200.368 E97.59456
G1 F1800 X121.482 Y200.369 E97.61554
G1 X85.936 Y200.369 E98.98105
G1 F1599.2 X85.463 Y200.425 E99.00165
G1 F1438.8 X85.084 Y200.375 E99.02002
G1 F1554.4 X85.03 Y200.316 E99.02358
G1 F1747.1 X84.626 Y200.129 E99.0412
G1 F1800 X84.265 Y199.849 E99.05875
G1 X83.995 Y199.489 E99.07604
G1 X83.821 Y199.029 E99.09493
G1 X83.77 Y198.653 E99.1095
G1 X83.769 Y164.653 E100.41563
G1 X83.724 Y164.319 E100.42858
G1 X83.601 Y164.018 E100.44107
G1 X83.403 Y163.752 E100.45381
G1 X83.139 Y163.548 E100.46662
G1 X82.839 Y163.42 E100.47915
G1 X82.394 Y163.37 E100.49636
G1 X75.5 Y163.369 E100.76119
G1 X75.035 Y163.303 E100.77923
G1 X74.626 Y163.13 E100.79629
G1 X74.265 Y162.849 E100.81387
G1 X73.992 Y162.479 E100.83153
G1 X73.826 Y162.059 E100.84888
G1 X73.77 Y161.377 E100.87517
G1 X73.77 Y148.608 E101.3657
G1 X73.835 Y148.173 E101.38259
G1 X74.019 Y147.75 E101.40031
G1 X74.289 Y147.403 E101.4172
G1 X74.649 Y147.133 E101.43449
G1 X75.149 Y146.954 E101.45489
G1 X75.487 Y146.907 E101.468
G1 X82.483 Y146.907 E101.73675
G1 X82.817 Y146.861 E101.74971
G1 X83.12 Y146.739 E101.76225
G1 X83.389 Y146.538 E101.77515
G0 F3600 X83.511 Y146.38
G0 X83.112 Y146.067
G0 X75.44 Y146.46
G0 X70.471 Y147.476
G0 X69.627 Y147.966
G0 X69.059 Y148.783
G0 X69.528 Y148.973
G1 F900 X69.683 Y148.612 E101.79025
G1 X69.931 Y148.295 E101.80571
G1 X70.25 Y148.055 E101.82104
G1 X70.621 Y147.907 E101.83639
G1 X71.018 Y147.859 E101.85175
G1 X71.415 Y147.916 E101.86716
G1 X71.789 Y148.081 E101.88286
G1 X72.094 Y148.319 E101.89772
G1 X72.333 Y148.638 E101.91303
G1 X72.481 Y149.008 E101.92834
G1 X72.528 Y149.406 E101.94374
G1 X72.47 Y149.816 E101.95965
G1 X72.317 Y150.167 E101.97436
G1 X72.069 Y150.481 E101.98973
G1 X71.749 Y150.721 E102.00509
G1 X71.38 Y150.869 E102.02037
G1 X70.982 Y150.917 E102.03577
G1 X70.495 Y150.824 E102.05481
G1 X70.224 Y150.705 E102.06618
G1 X69.907 Y150.457 E102.08164
G1 X69.667 Y150.137 E102.09701
G1 X69.519 Y149.767 E102.11232
G1 X69.471 Y149.37 E102.12768
G1 X69.528 Y148.973 E102.14309
G0 F3600 X69.607 Y148.789
G0 X69.134 Y148.598
G0 X69.993 Y147.679
G0 X70.984 Y147.403
G0 X71.977 Y147.662
G0 X73.122 Y148.919
;TYPE:WALL-INNER
G1 F516.5 X73.151 Y149.376 E102.17374
G1 F517.2 X73.123 Y149.877 E102.20728
G0 F3600 X69.849 Y158.392
G0 X68.967 Y160.807
G0 X69.471 Y160.87
;TYPE:WALL-OUTER
G1 F900 X69.528 Y160.473 E102.22269
G1 X69.683 Y160.112 E102.23778
G1 X69.931 Y159.795 E102.25325
G1 X70.333 Y159.52 E102.27196
G1 X70.621 Y159.407 E102.28384
G1 X71.018 Y159.359 E102.2992
G1 X71.415 Y159.416 E102.31461
G1 X71.776 Y159.571 E102.3297
G1 X72.093 Y159.819 E102.34516
G1 X72.333 Y160.138 E102.3605
G1 X72.481 Y160.508 E102.37581
G1 X72.529 Y160.906 E102.39121
G1 X72.44 Y161.389 E102.41008
G1 X72.308 Y161.678 E102.42228
G1 X72.062 Y161.988 E102.43748
G1 X71.75 Y162.221 E102.45244
G1 X71.38 Y162.369 E102.46775
G1 X70.982 Y162.417 E102.48315
G1 X70.585 Y162.36 E102.49856
G1 X70.224 Y162.205 E102.51365
G1 X69.907 Y161.957 E102.52911
G1 X69.667 Y161.637 E102.54448
G1 X69.519 Y161.267 E102.55979
G1 X69.471 Y160.87 E102.57515
G0 F3600 X69.499 Y160.672
G0 X68.992 Y160.608
G0 X69.586 Y159.498
G0 X70.471 Y158.976
G0 X71.497 Y158.968
G0 X72.31 Y159.414
G0 X73.122 Y160.419
;TYPE:WALL-INNER
G1 F514 X73.147 Y160.981 E102.61299
G1 F514.6 X73.123 Y161.377 E102.63965
G0 F3600 X82.868 Y202.557
G0 X83.371 Y202.621
;TYPE:WALL-OUTER
G1 F900 X83.448 Y202.158 E102.65768
G1 X83.567 Y201.865 E102.66983
G1 X83.861 Y201.473 E102.68865
G1 X84.2 Y201.219 E102.70492
G1 X84.593 Y201.06 E102.72121
G1 F869.9 X84.953 Y200.994 E102.73576
G1 F774.3 X85.024 Y200.951 E102.73946
G1 F728.2 X85.425 Y201.013 E102.75873
G1 F810.5 X86.121 Y201.455 E102.7939
G1 F900 X86.419 Y201.838 E102.81254
G1 X86.577 Y202.231 E102.82881
G1 X86.629 Y202.655 E102.84522
G1 X86.566 Y203.092 E102.86218
G1 X86.404 Y203.463 E102.87773
G1 X86.139 Y203.803 E102.89429
G1 X85.8 Y204.057 E102.91057
G1 X85.407 Y204.215 E102.92684
G1 X84.983 Y204.267 E102.94325
G1 X84.56 Y204.206 E102.95967
G1 X84.175 Y204.042 E102.97574
G1 X83.835 Y203.777 E102.9923
G1 X83.581 Y203.438 E103.00857
G1 X83.423 Y203.045 E103.02485
G1 X83.371 Y202.621 E103.04126
G0 F3600 X83.403 Y202.424
G0 X82.893 Y202.359
G0 X64.203 Y211.934
G0 X63.724 Y212.108
G1 F1800 X63.758 Y212.256 E103.04709
G1 X63.882 Y212.379 E103.0538
